!!!COM: Bach, Johann Sebastian
!!!OPR: Komm, Jesu, komm
!!!OTL:
!!!OMV: 1
!!!SCT: BWV 229
!!!SCA: Thematisch-systematisches Verzeichnis der musikalischen Werke Johann Sebastian Bach: Bach-Werke-Verzeichnis (Schmieder)
!!!YOR: Bach Gesellschaft Edition xxxix
!!!EED: Edmund Correia, Jr.
!!!ENC: Edmund Correia, Jr.
!!!CDT: 1685/3//-1750/7/28/
!!!OCY: Deutschland
!!!YEC: Copyright (c) 1994, 2000 Center for Computer Assisted Research in the Humanities
!!!YEM: Rights to all derivative editions reserved.
!!!YEM: Refer to licensing agreement for further details.
!!!YEN: United States of America
**kern	**silbe	**kern	**silbe	**kern	**silbe	**kern	**silbe	**kern	**silbe	**kern	**silbe	**kern	**silbe	**kern	**silbe
*I:Soprano	*I:Soprano	*I:Alto	*I:Alto	*I:Tenore	*I:Tenore	*I:Basso	*I:Basso	*I:Soprano	*I:Soprano	*I:Alto	*I:Alto	*I:Tenore	*I:Tenore	*I:Basso	*I:Basso
*clefG2	*	*clefG2	*	*clefGv2	*	*clefF4	*	*clefG2	*	*clefG2	*	*clefGv2	*	*clefF4	*
*k[b-e-]	*	*k[b-e-]	*	*k[b-e-]	*	*k[b-e-]	*	*k[b-e-]	*	*k[b-e-]	*	*k[b-e-]	*	*k[b-e-]	*
*g:	*	*g:	*	*g:	*	*g:	*	*g:	*	*g:	*	*g:	*	*g:	*
*M3/2	*	*M3/2	*	*M3/2	*	*M3/2	*	*M3/2	*	*M3/2	*	*M3/2	*	*M3/2	*
*MM204	*MM204	*MM204	*MM204	*MM204	*MM204	*MM204	*MM204	*MM204	*MM204	*MM204	*MM204	*MM204	*MM204	*MM204	*MM204
=1-	=1-	=1-	=1-	=1-	=1-	=1-	=1-	=1-	=1-	=1-	=1-	=1-	=1-	=1-	=1-
2dd\	Komm,	2b-\	Komm,	2g\	Komm,	2G\	Komm,	1.r	.	1.r	.	1.r	.	1.r	.
2r	.	2r	.	2r	.	2r	.	.	.	.	.	.	.	.	.
2r	.	2r	.	2r	.	2r	.	.	.	.	.	.	.	.	.
=2	=2	=2	=2	=2	=2	=2	=2	=2	=2	=2	=2	=2	=2	=2	=2
1.r	.	1.r	.	1.r	.	1.r	.	2ee-\	Komm,	2cc\	Komm,	2g\	Komm,	2G\	Komm,
.	.	.	.	.	.	.	.	2r	.	2r	.	2r	.	2r	.
.	.	.	.	.	.	.	.	2r	.	2r	.	2r	.	2r	.
=3	=3	=3	=3	=3	=3	=3	=3	=3	=3	=3	=3	=3	=3	=3	=3
2ff#\	komm,	2cc\	komm,	2c\	komm,	2A\	komm,	2cc\	komm,	2a/	komm,	2f#\	komm,	2A\	komm
2r	.	2r	.	2r	.	2r	.	2r	.	2r	.	2r	.	2r	.
2r	.	2r	.	2r	.	2r	.	2r	.	2r	.	2r	.	2r	.
=4	=4	=4	=4	=4	=4	=4	=4	=4	=4	=4	=4	=4	=4	=4	=4
2gg\	komm,	2g/	komm,	2d\	komm,	2B-\	komm,	2b-\	komm,	2g/	komm,	2d\	komm,	2B-\	komm,
2dd\	Je-	(4a/	Je-	2d\	Je-	(4F#\	Je-	2r	.	2r	.	2r	.	2r	.
.	.	4g/)	.	.	.	4E\)	.	.	.	.	.	.	.	.	.
2cc\	-su,	(4a/	-su,	2d\	-su,	(4F#\	-su,	2r	.	2r	.	2r	.	2r	.
.	.	4f#/)	.	.	.	4D\)	.	.	.	.	.	.	.	.	.
=5	=5	=5	=5	=5	=5	=5	=5	=5	=5	=5	=5	=5	=5	=5	=5
2b-\	komm,	2g/	komm,	2d\	komm,	2G\	komm,	2gg\	komm,	2g/	komm,	2d\	komm,	2B-\	komm,
2r	.	2r	.	2r	.	2r	.	2dd\	Je-	(4a/	Je-	2d\	Je-	(4F#\	Je-
.	.	.	.	.	.	.	.	.	.	4g/)	.	.	.	4E\)	.
2r	.	2r	.	2r	.	2r	.	2cc\	-su,	(4a/	-su,	2d\	-su,	(4F#\	-su,
.	.	.	.	.	.	.	.	.	.	4f#/)	.	.	.	4D\)	.
=6	=6	=6	=6	=6	=6	=6	=6	=6	=6	=6	=6	=6	=6	=6	=6
2dd\	komm,	2b-\	komm,	2g\	komm,	2G\	komm,	2b-\	komm,	2g/	komm,	2d\	komm,	2G\	komm,
(4ee-\	Je-	2cc\	Je-	(4g\	Je-	2c\	Je-	2r	.	2r	.	2r	.	2r	.
4dd\)	.	.	.	4f\)	.	.	.	.	.	.	.	.	.	.	.
(4gg\	-su,	2g/	-su,	(4e-\	-su,	2E-\	-su,	2r	.	2r	.	2r	.	2r	.
4ff\)	.	.	.	4d\)	.	.	.	.	.	.	.	.	.	.	.
=7	=7	=7	=7	=7	=7	=7	=7	=7	=7	=7	=7	=7	=7	=7	=7
! (4b-P/	!	!	!	!	!	!	!	!	!	!	!	!	!	!	!
2ap/)	komm,	2f/	komm,	2c\	komm,	2F\	komm,	2cc\	komm,	2a/	komm,	2f\	komm,	2F\	komm,
2r	.	2r	.	2r	.	2r	.	(4dd\	Je-	2b-\	Je-	(4f\	Je-	2B-\	Je-
.	.	.	.	.	.	.	.	4ee-\)	.	.	.	4e-\)	.	.	.
2r	.	2r	.	2r	.	2r	.	2ff\	-su,	2f/	-su,	(4d\	-su,	2D\	-su,
.	.	.	.	.	.	.	.	.	.	.	.	4c\)	.	.	.
=8	=8	=8	=8	=8	=8	=8	=8	=8	=8	=8	=8	=8	=8	=8	=8
2b-\	komm,	2g/	komm,	(4e-\	komm,	2E-\	komm,	2g/	komm,	2e-/	komm,	2B-\	komm,	2E-\	komm,
.	.	.	.	4d\)	.	.	.	.	.	.	.	.	.	.	.
(4ee-\	Je-	2g/	Je-	(4c\	Je-	2c\	Je-	2r	.	2r	.	2r	.	2r	.
4dd\)	.	.	.	4B-\)	.	.	.	.	.	.	.	.	.	.	.
2ee-\	-su,	(4f#/	-su,	2c\	-su,	2A\	-su,	2r	.	2r	.	2r	.	2r	.
.	.	4g/)	.	.	.	.	.	.	.	.	.	.	.	.	.
=9	=9	=9	=9	=9	=9	=9	=9	=9	=9	=9	=9	=9	=9	=9	=9
(4ee-\	komm,	2a/	komm,	2c\	komm,	2F#\	komm,	2a/	komm,	(4f#/	komm,	2d\	komm,	2D\	komm,
4dd\)	.	.	.	.	.	.	.	.	.	4g/)	.	.	.	.	.
2r	.	2r	.	2r	.	2r	.	(4dd\	Je-	2a/	Je-	2d\	Je-	2F#\	Je-
.	.	.	.	.	.	.	.	4cc\)	.	.	.	.	.	.	.
2r	.	2r	.	2r	.	2r	.	(4ee-\	-su,	2f#/	-su,	2A/	-su,	2D\	-su,
.	.	.	.	.	.	.	.	4dd\)	.	.	.	.	.	.	.
=10	=10	=10	=10	=10	=10	=10	=10	=10	=10	=10	=10	=10	=10	=10	=10
!	!	!	!	!	!	!	!	! (4ccP/	!	!	!	!	!	!	!
2dd\	mein	1.r	.	1.r	.	2B-\	mein	2b-p\)	komm,	2d/	komm,	2G/	komm,	2G\	komm,
(4cc\	Leib	.	.	.	.	2d\	Leib	2r	.	2r	.	2r	.	2r	.
4b-\)	.	.	.	.	.	.	.	.	.	.	.	.	.	.	.
(4a/	ist	.	.	.	.	2B-\	ist	2r	.	2r	.	2r	.	2r	.
4g/)	.	.	.	.	.	.	.	.	.	.	.	.	.	.	.
=11	=11	=11	=11	=11	=11	=11	=11	=11	=11	=11	=11	=11	=11	=11	=11
[1.a-/	m\3u-	2f/	mein	1.r	.	1.D\	m\3u-	2ff\	komm,	2b-\	komm,	2B-\	komm,	2d\	komm,
.	.	(4e-/	Leib	.	.	.	.	2r	.	2r	.	2r	.	2r	.
.	.	4d/)	.	.	.	.	.	.	.	.	.	.	.	.	.
.	.	(4c/	ist	.	.	.	.	2r	.	2r	.	2r	.	2r	.
.	.	4B-/)	.	.	.	.	.	.	.	.	.	.	.	.	.
=12	=12	=12	=12	=12	=12	=12	=12	=12	=12	=12	=12	=12	=12	=12	=12
2a-/]	.	2B-/	m\3u-	2e-\	mein	1.E-\	.	2ee-\	komm,	2b-\	komm,	2e-\	komm,	2G\	komm,
[1g/	.	[1e-/	.	(4B-\	Leib	.	.	2r	.	2r	.	2r	.	2r	.
.	.	.	.	4A-/)	.	.	.	.	.	.	.	.	.	.	.
.	.	.	.	(4A-/	ist	.	.	2r	.	2r	.	2r	.	2r	.
.	.	.	.	4G/)	.	.	.	.	.	.	.	.	.	.	.
=13	=13	=13	=13	=13	=13	=13	=13	=13	=13	=13	=13	=13	=13	=13	=13
2g/]	.	1.e-/_	.	[1.c\	m\3u-	1.AA/	.	2cc\	mein	2cc\	komm,	2e-\	mein	2A\	komm,
[1f/	.	.	.	.	.	.	.	(4b-\	Leib	2r	.	(4d\	Leib	2r	.
.	.	.	.	.	.	.	.	4a/)	.	.	.	4c\)	.	.	.
.	.	.	.	.	.	.	.	(4g/	ist	2r	.	(4B-\	ist	2r	.
.	.	.	.	.	.	.	.	4f/)	.	.	.	4A/)	.	.	.
=14	=14	=14	=14	=14	=14	=14	=14	=14	=14	=14	=14	=14	=14	=14	=14
2f/]	.	4e-/]	.	4c\]	.	1.FF/	.	2ee-\	m\3u-	2f/	mein	2A/	m\3u-	2F\	mein
.	.	4d/	.	4B-\	.	.	.	.	.	.	.	.	.	.	.
4e-/	.	4c/	.	[1A/	.	.	.	2cc\	-de,	2f/	Leib	2c\	-de,	2A\	Leib
4d/	.	4B-/	.	.	.	.	.	.	.	.	.	.	.	.	.
[2e-/	.	[2c/	.	.	.	.	.	2a/	ist	2f/	ist	2c\	ist	2F\	ist
=15	=15	=15	=15	=15	=15	=15	=15	=15	=15	=15	=15	=15	=15	=15	=15
2e-/]	.	2c/]	.	2A/]	.	1BB-/	-de,	2a/	m\3u-	2f/	m\3u-	2c\	m\3u-	2B-\	m\3u-
2d/	-de,	2B-/	-de,	2F/	-de,	.	.	2b-\	-de,	2f/	-de,	2d\	-de,	2BB-/	-de,
2r	.	2r	.	2r	.	2r	.	2r	.	2r	.	2r	.	2r	.
=16	=16	=16	=16	=16	=16	=16	=16	=16	=16	=16	=16	=16	=16	=16	=16
2r	.	2r	.	2r	.	4r	.	1.r	.	1.r	.	1.r	.	1.r	.
.	.	.	.	.	.	4B-\	die	.	.	.	.	.	.	.	.
2r	.	2r	.	2r	.	4d\	Kraft	.	.	.	.	.	.	.	.
.	.	.	.	.	.	4B-\	ver-	.	.	.	.	.	.	.	.
4r	.	4r	.	4r	.	4G\	-schwind't	.	.	.	.	.	.	.	.
4dd\	die	4b-\	die	4g\	die	4F\	je	.	.	.	.	.	.	.	.
=17	=17	=17	=17	=17	=17	=17	=17	=17	=17	=17	=17	=17	=17	=17	=17
4gg\	Kraft	4cc\	Kraft	4g\	Kraft	1E\	mehr	1.r	.	1.r	.	1.r	.	1.r	.
4ee\	ver-	4c/	ver-	4G/	ver-	.	.	.	.	.	.	.	.	.	.
4cc\	-schwind't	4c/	-schwind't	4G/	-schwind't	.	.	.	.	.	.	.	.	.	.
8b-/L	je	4c/	je	4G/	je	.	.	.	.	.	.	.	.	.	.
8a/J	.	.	.	.	.	.	.	.	.	.	.	.	.	.	.
4b-\	mehr	4c/	mehr	4G/	mehr	2E\	und	.	.	.	.	.	.	.	.
4g/	und	4c/	und	4G/	und	.	.	.	.	.	.	.	.	.	.
=18	=18	=18	=18	=18	=18	=18	=18	=18	=18	=18	=18	=18	=18	=18	=18
2a/	mehr,	2c/	mehr,	2F/	mehr,	2F\	mehr,	2r	.	2r	.	2r	.	4r	.
.	.	.	.	.	.	.	.	.	.	.	.	.	.	4F\	die
2r	.	2r	.	2r	.	2r	.	2r	.	2r	.	2r	.	4A\	Kraft
.	.	.	.	.	.	.	.	.	.	.	.	.	.	4F\	ver-
2r	.	2r	.	2r	.	2r	.	4r	.	4r	.	4r	.	4D\	-schwind't
.	.	.	.	.	.	.	.	4a/	die	4f/	die	4d\	die	4C/	je
=19	=19	=19	=19	=19	=19	=19	=19	=19	=19	=19	=19	=19	=19	=19	=19
1.r	.	1.r	.	1.r	.	1.r	.	4dd\	Kraft	4g/	Kraft	4d\	Kraft	1BB/	mehr
.	.	.	.	.	.	.	.	4b\	ver-	4d/	ver-	4G/	ver-	.	.
.	.	.	.	.	.	.	.	4g/	-schwind't	4d/	-schwind't	4G/	-schwind't	.	.
.	.	.	.	.	.	.	.	8f/L	je	4d/	je	4G/	je	.	.
.	.	.	.	.	.	.	.	8e-/J	.	.	.	.	.	.	.
.	.	.	.	.	.	.	.	4f/	mehr	4d/	mehr	4G/	mehr	2BB/	und
.	.	.	.	.	.	.	.	4d/	und	4d/	und	4G/	und	.	.
=20	=20	=20	=20	=20	=20	=20	=20	=20	=20	=20	=20	=20	=20	=20	=20
2r	.	2r	.	2r	.	4r	.	2e-/	mehr,	2c/	mehr,	2G/	mehr,	2C/	mehr,
.	.	.	.	.	.	4c\	die	.	.	.	.	.	.	.	.
2r	.	2r	.	2r	.	4e-\	Kraft	2r	.	2r	.	2r	.	2r	.
.	.	.	.	.	.	4c\	ver-	.	.	.	.	.	.	.	.
4r	.	4r	.	4r	.	4A\	-schwind't	2r	.	2r	.	2r	.	2r	.
4gg\	die	4cc\	die	4e-\	die	4G\	je	.	.	.	.	.	.	.	.
=21	=21	=21	=21	=21	=21	=21	=21	=21	=21	=21	=21	=21	=21	=21	=21
4aa\	Kraft	4cc\	Kraft	4d\	Kraft	1F#\	mehr	1.r	.	1.r	.	1.r	.	1.r	.
4ff#\	ver-	4d/	ver-	4A/	ver-	.	.	.	.	.	.	.	.	.	.
4dd\	-schwind't	4d/	-schwind't	4A/	-schwind't	.	.	.	.	.	.	.	.	.	.
8cc\L	je	4d/	je	4A/	je	.	.	.	.	.	.	.	.	.	.
8b-\J	.	.	.	.	.	.	.	.	.	.	.	.	.	.	.
4cc\	mehr	4d/	mehr	4A/	mehr	2F#\	und	.	.	.	.	.	.	.	.
4a/	und	4d/	und	4A/	und	.	.	.	.	.	.	.	.	.	.
=22	=22	=22	=22	=22	=22	=22	=22	=22	=22	=22	=22	=22	=22	=22	=22
2b-\	mehr,	2d/	mehr,	2G/	mehr,	2G\	mehr,	2r	.	2r	.	2r	.	4r	.
.	.	.	.	.	.	.	.	.	.	.	.	.	.	4G\	die
2r	.	2r	.	2r	.	2r	.	2r	.	2r	.	2r	.	4B-\	Kraft
.	.	.	.	.	.	.	.	.	.	.	.	.	.	4G\	ver-
2r	.	2r	.	2r	.	2r	.	4r	.	4r	.	4r	.	4E\	-schwind't
.	.	.	.	.	.	.	.	4dd\	die	4b-\	die	4g\	die	4D\	je
=23	=23	=23	=23	=23	=23	=23	=23	=23	=23	=23	=23	=23	=23	=23	=23
1.r	.	1.r	.	1.r	.	1.r	.	4ee\	Kraft	4a/	Kraft	4g\	Kraft	1C#/	mehr
.	.	.	.	.	.	.	.	4cc#\	ver-	4e/	ver-	4A/	ver-	.	.
.	.	.	.	.	.	.	.	4a/	-schwind't	4e/	-schwind't	4A/	-schwind't	.	.
.	.	.	.	.	.	.	.	8g/L	je	4e/	je	4A/	je	.	.
.	.	.	.	.	.	.	.	8f/J	.	.	.	.	.	.	.
.	.	.	.	.	.	.	.	4g/	mehr	4e/	mehr	4A/	mehr	2C#/	und
.	.	.	.	.	.	.	.	4e/	und	4e/	und	4A/	und	.	.
=24	=24	=24	=24	=24	=24	=24	=24	=24	=24	=24	=24	=24	=24	=24	=24
4r	.	4r	.	4r	.	4r	.	2f/	mehr,	2d/	mehr,	2A/	mehr,	2D\	mehr,
4f/	die	4d/	die	4A/	die	4D\	die	.	.	.	.	.	.	.	.
4g/	Kraft	4c/	Kraft	4G/	Kraft	4E\	Kraft	2r	.	2r	.	2r	.	2r	.
4a/	ver-	4c/	ver-	4F/	ver-	4F\	ver-	.	.	.	.	.	.	.	.
4b-\	-schwind't	4g/	-schwind't	4d\	-schwind't	4G\	-schwind't	4r	.	4r	.	4r	.	4r	.
4r	.	4r	.	4r	.	4r	.	4dd\	die	4b-\	die	4G/	die	4G\	die
=25	=25	=25	=25	=25	=25	=25	=25	=25	=25	=25	=25	=25	=25	=25	=25
4r	.	4r	.	4r	.	4r	.	2ee\	Kraft	2b-\	Kraft	2g\	Kraft	2c\	Kraft
4e/	je	4e/	je	4c\	je	4C/	je	.	.	.	.	.	.	.	.
4f/	mehr	4d/	mehr	4B-\	mehr	4D\	mehr	2r	.	2r	.	2r	.	2r	.
4g/	und	4c/	und	4G/	und	4E\	und	.	.	.	.	.	.	.	.
4a/	mehr,	4f/	mehr,	4c\	mehr,	4F\	mehr,	4r	.	4r	.	4r	.	4r	.
4r	.	4r	.	4r	.	4r	.	4ff\	ver-	4a/	ver-	4f\	ver-	4F\	ver-
=26	=26	=26	=26	=26	=26	=26	=26	=26	=26	=26	=26	=26	=26	=26	=26
4r	.	4r	.	4r	.	4r	.	2dd\	-schwind't	2a/	-schwind't	2f\	-schwind't	2B-\	-schwind't
4dd\	die	4f/	die	4d\	die	4BB-/	die	.	.	.	.	.	.	.	.
4ee\	Kraft	4g/	Kraft	4c\	Kraft	4B-\	Kraft	2r	.	2r	.	2r	.	2r	.
4ff#\	ver-	4a/	ver-	4c\	ver-	4A\	ver-	.	.	.	.	.	.	.	.
4gg\	-schwind't	4b-\	-schwind't	4d\	-schwind't	4G\	-schwind't	4r	.	4r	.	4r	.	4r	.
4r	.	4r	.	4r	.	4r	.	4dd\	je	4g/	je	4B-\	je	4F\	je
=27	=27	=27	=27	=27	=27	=27	=27	=27	=27	=27	=27	=27	=27	=27	=27
4r	.	4r	.	4r	.	4r	.	2gg\	mehr	2b-\	mehr	2G/	mehr	2E\	mehr
4ff\	je	4a/	je	4d\	je	4F\	je	.	.	.	.	.	.	.	.
(4ee\	mehr	(4g/	mehr	(4B-\	mehr	(4G\	mehr	2r	.	2r	.	2r	.	2r	.
4dd\)	.	4f/)	.	4A/)	.	4A\)	.	.	.	.	.	.	.	.	.
(4cc#\	und	2e/	und	(4G/	und	(4B-\	und	4r	.	4r	.	4r	.	4r	.
4dd\)	.	.	.	4B-\)	.	4E\)	.	4b-\	und	4g/	und	4e\	und	4GG/	und
=28	=28	=28	=28	=28	=28	=28	=28	=28	=28	=28	=28	=28	=28	=28	=28
2cc#\	mehr,	2e/	mehr,	2E/	mehr,	2A\	mehr,	(4b-\	mehr,	2c#/	mehr,	2e\	mehr,	2AA/	mehr,
.	.	.	.	.	.	.	.	4a/)	.	.	.	.	.	.	.
2r	.	2r	.	2r	.	2r	.	2r	.	2r	.	2r	.	2r	.
2r	.	2r	.	2r	.	2r	.	2r	.	2r	.	2r	.	2r	.
=29	=29	=29	=29	=29	=29	=29	=29	=29	=29	=29	=29	=29	=29	=29	=29
1.r	.	1.r	.	1.r	.	1.r	.	2dd\	ich	2a/	ich	2f\	ich	2D\	ich
.	.	.	.	.	.	.	.	(4cc\	seh-	2.f#/	seh-	2A/	seh-	2d\	seh-
.	.	.	.	.	.	.	.	4b-\)	.	.	.	.	.	.	.
.	.	.	.	.	.	.	.	(4cc\	-ne	.	.	2d\	-ne	2D\	-ne
.	.	.	.	.	.	.	.	4a/)	.	4f#/	-ne	.	.	.	.
=30	=30	=30	=30	=30	=30	=30	=30	=30	=30	=30	=30	=30	=30	=30	=30
2gg\	ich	2b-\	ich	(4d\	ich	2D\	ich	2b-\	mich,	2g/	mich,	2d\	mich,	2D\	mich,
.	.	.	.	4e\)	.	.	.	.	.	.	.	.	.	.	.
(4ff\	seh-	(4a/	seh-	2f\	seh-	2d\	seh-	2r	.	2r	.	2r	.	2r	.
4ee\)	.	4g/)	.	.	.	.	.	.	.	.	.	.	.	.	.
(4ff\	-ne	(4a/	-ne	2d\	-ne	2D\	-ne	2dd\	ich	2f/	ich	2A/	ich	2D\	ich
4dd\)	.	4f/)	.	.	.	.	.	.	.	.	.	.	.	.	.
=31	=31	=31	=31	=31	=31	=31	=31	=31	=31	=31	=31	=31	=31	=31	=31
2cc#\	mich,	2e/	mich,	2G/	mich,	2E\	mich,	(4b-\	seh-	(4g/	seh-	(4c#\	seh-	2A\	seh-
.	.	.	.	.	.	.	.	4a/)	.	4f/)	.	4d\)	.	.	.
2r	.	2r	.	2r	.	2r	.	(4b-\	-ne	(4g/	-ne	(4c#\	-ne	2AA/	-ne
.	.	.	.	.	.	.	.	4a/)	.	4f/)	.	4d\)	.	.	.
2cc#\	ich	2a/	ich	2e\	ich	2G\	ich	2a/	mich,	2e/	mich,	2c#\	mich,	2AA/	mich,
=32	=32	=32	=32	=32	=32	=32	=32	=32	=32	=32	=32	=32	=32	=32	=32
4dd\	seh-	4a/	seh-	4A/	seh-	4F\	seh-	2ff\	ich	2d/	ich	2A/	ich	2d\	ich
4ee\	-ne	4g/	-ne	4B\	-ne	4G\	-ne	.	.	.	.	.	.	.	.
2a/	mich,	2g/	mich,	2c#\	mich,	2A\	mich,	(4ee\	seh-	2a/	seh-	2e\	seh-	(4c#\	seh-
.	.	.	.	.	.	.	.	4dd\)	.	.	.	.	.	4B\)	.
2r	.	2r	.	2r	.	2r	.	(4ee\	-ne	2g/	-ne	2A/	-ne	(4c#\	-ne
.	.	.	.	.	.	.	.	4cc#\)	.	.	.	.	.	4A\)	.
=33	=33	=33	=33	=33	=33	=33	=33	=33	=33	=33	=33	=33	=33	=33	=33
2ff\	ich	2f/	ich	2A/	ich	2d\	ich	2dd\	mich,	2f/	mich,	2A/	mich,	2d\	mich,
(4ee\	seh-	2a/	seh-	2e\	seh-	(4c#\	seh-	2r	.	2r	.	2r	.	2r	.
4dd\)	.	.	.	.	.	4B\)	.	.	.	.	.	.	.	.	.
(4ee\	-ne	2g/	-ne	2A/	-ne	(4c#\	-ne	2r	.	2r	.	2r	.	2r	.
4cc#\)	.	.	.	.	.	4A\)	.	.	.	.	.	.	.	.	.
=34	=34	=34	=34	=34	=34	=34	=34	=34	=34	=34	=34	=34	=34	=34	=34
2dd\	mich,	2f/	mich,	2A/	mich,	2d\	mich,	2a/	ich	2f/	ich	2d\	ich	2d\	ich
2r	.	2r	.	2r	.	2r	.	(4dd\	seh-	2f/	seh-	2d\	seh-	2B-\	seh-
.	.	.	.	.	.	.	.	4cc\)	.	.	.	.	.	.	.
2r	.	2r	.	2r	.	2r	.	(4b-\	-ne	(4g/	-ne	2d\	-ne	2G\	-ne
.	.	.	.	.	.	.	.	4a/)	.	4f/)	.	.	.	.	.
=35	=35	=35	=35	=35	=35	=35	=35	=35	=35	=35	=35	=35	=35	=35	=35
2g/	ich	2e/	ich	2c\	ich	2c\	ich	2g/	mich,	2e/	mich,	2e\	mich,	2c\	mich,
(4cc\	seh-	2e/	seh-	2c\	seh-	2A\	seh-	2r	.	2r	.	2r	.	2r	.
4b-\)	.	.	.	.	.	.	.	.	.	.	.	.	.	.	.
(4a/	-ne	(4f/	-ne	2c\	-ne	2F\	-ne	2r	.	2r	.	2r	.	2r	.
4g/)	.	4e/)	.	.	.	.	.	.	.	.	.	.	.	.	.
=36	=36	=36	=36	=36	=36	=36	=36	=36	=36	=36	=36	=36	=36	=36	=36
2f/	mich,	2d/	mich,	2d\	mich,	2B-\	mich,	2f/	ich	2d/	ich	2f\	ich	(4B-\	ich
.	.	.	.	.	.	.	.	.	.	.	.	.	.	4A\)	.
2r	.	2r	.	2r	.	2r	.	(4b-\	seh-	(4c#/	seh-	(4e\	seh-	(4G\	seh-
.	.	.	.	.	.	.	.	4a/)	.	4d/)	.	4f\)	.	4F\)	.
2r	.	2r	.	2r	.	2r	.	(4cc#\	-ne	(4e/	-ne	2B-\	-ne	(4E\	-ne
.	.	.	.	.	.	.	.	4dd\)	.	4f/)	.	.	.	4D\)	.
=37	=37	=37	=37	=37	=37	=37	=37	=37	=37	=37	=37	=37	=37	=37	=37
2a/	ich	2e/	ich	2c#\	ich	(4A\	ich	2ee\	mich	2g/	mich	2A/	mich	2C#/	mich
.	.	.	.	.	.	4G\)	.	.	.	.	.	.	.	.	.
2dd\	seh-	2a/	seh-	2d\	seh-	(4F\	seh-	2r	.	2r	.	2r	.	2r	.
.	.	.	.	.	.	4E\)	.	.	.	.	.	.	.	.	.
2ee\	-ne	2a/	-ne	2A/	-ne	(4D\	-ne	2r	.	2r	.	2r	.	2r	.
.	.	.	.	.	.	4C#/)	.	.	.	.	.	.	.	.	.
=38	=38	=38	=38	=38	=38	=38	=38	=38	=38	=38	=38	=38	=38	=38	=38
2ff\	mich,	2a/	mich,	2d\	mich	2D\	mich,	2a/	nach	1.r	.	1.r	.	2d\	nach
2r	.	2r	.	2r	.	2r	.	(4b-\	dei-	.	.	.	.	2c\	dei-
.	.	.	.	.	.	.	.	4a/)	.	.	.	.	.	.	.
2r	.	2r	.	2r	.	2r	.	(4g/	-nem	.	.	.	.	2B-\	-nem
.	.	.	.	.	.	.	.	4f/)	.	.	.	.	.	.	.
=39	=39	=39	=39	=39	=39	=39	=39	=39	=39	=39	=39	=39	=39	=39	=39
2f/	ich	2r	.	1.r	.	1.r	.	[1.ee-\	Frie-	1.r	.	2c\	nach	2A\	Frie-
(4b-\	seh-	2r	.	.	.	.	.	.	.	.	.	(4d\	dei-	2G\	.
4a/	.	.	.	.	.	.	.	.	.	.	.	4c\)	.	.	.
[2cc\)	.	2f/	ich	.	.	.	.	.	.	.	.	(4B-\	-nem	2F\	.
.	.	.	.	.	.	.	.	.	.	.	.	4A/)	.	.	.
=40	=40	=40	=40	=40	=40	=40	=40	=40	=40	=40	=40	=40	=40	=40	=40
(4cc\]	.	(2d/	seh-	1.r	.	2B-\	ich	2ee-\]	.	2f/	nach	[1.B-\	Frie-	2.B-\	.
4a/)	.	.	.	.	.	.	.	.	.	.	.	.	.	.	.
(4b-\	-ne	2g/)	.	.	.	(4d\	seh-	[1dd\	.	(4g/	dei-	.	.	.	.
4cc\)	.	.	.	.	.	4c\)	.	.	.	4f/)	.	.	.	4A\	.
2dd\	mich	2g/	-ne	.	.	(4B-\	-ne	.	.	(4e/	-nem	.	.	4G\	.
.	.	.	.	.	.	4A\)	.	.	.	4d/)	.	.	.	4F\	.
=41	=41	=41	=41	=41	=41	=41	=41	=41	=41	=41	=41	=41	=41	=41	=41
2gg\	nach	[1.g/	mich	2G/	nach	1G\	mich	2dd\]	.	[1.b-\	Frie-	4B-\]	.	1.E\	.
.	.	.	.	.	.	.	.	.	.	.	.	4A/	.	.	.
(4cc\	dei-	.	.	(4e\	dei-	.	.	[1cc\	.	.	.	[1G/	.	.	.
4b-\)	.	.	.	4d\)	.	.	.	.	.	.	.	.	.	.	.
(4a/	-nem	.	.	(4f\	-nem	2F\	nach	.	.	.	.	.	.	.	.
4g/)	.	.	.	4e\)	.	.	.	.	.	.	.	.	.	.	.
=42	=42	=42	=42	=42	=42	=42	=42	=42	=42	=42	=42	=42	=42	=42	=42
2g/	Frie-	4g/]	.	2.g\	Frie-	2E\	dei-	2cc\]	.	4b-\]	.	2G/]	.	1.C/	.
.	.	4a/	nach	.	.	.	.	.	.	4a/	.	.	.	.	.
[1ee\	.	2b-\	dei-	.	.	2D\	.	4b-\	.	4g/	.	[1c\	.	.	.
.	.	.	.	4f\	-de,	.	.	4a/	.	4f/	.	.	.	.	.
.	.	2cc\	-nem	4e\	dei-	2C/	-nem	[2b-\	.	[2g/	.	.	.	.	.
.	.	.	.	4g\	-nem	.	.	.	.	.	.	.	.	.	.
=43	=43	=43	=43	=43	=43	=43	=43	=43	=43	=43	=43	=43	=43	=43	=43
2ee\]	.	(4cc\	Frie-	(4g\	Frie-	2F\	Frie-	2b-\]	.	2g/]	.	2c\]	.	2F\	.
.	.	4g/)	.	4c\)	.	.	.	.	.	.	.	.	.	.	.
2ff\	-de;	2a/	-de;	2c\	-de;	2FF/	-de;	2a/	-de;	2f/	-de;	2c\	-de;	2F\	-de;
2r	.	2r	.	2r	.	2r	.	2r	.	2r	.	2r	.	2r	.
=44	=44	=44	=44	=44	=44	=44	=44	=44	=44	=44	=44	=44	=44	=44	=44
1.r	.	1.r	.	1.r	.	1.r	.	1.r	.	1.r	.	1.r	.	2A\	der
.	.	.	.	.	.	.	.	.	.	.	.	.	.	2B-\	sau-
.	.	.	.	.	.	.	.	.	.	.	.	.	.	2C#/	-re
=45	=45	=45	=45	=45	=45	=45	=45	=45	=45	=45	=45	=45	=45	=45	=45
1.r	.	1.r	.	1.r	.	2A\	der	1.r	.	1.r	.	1.r	.	2.D\	Weg
.	.	.	.	.	.	2B-\	sau-	.	.	.	.	.	.	.	.
.	.	.	.	.	.	.	.	.	.	.	.	.	.	4D\	wird
.	.	.	.	.	.	2C#/	-re	.	.	.	.	.	.	4E\	mir
.	.	.	.	.	.	.	.	.	.	.	.	.	.	4E\	zu
=46	=46	=46	=46	=46	=46	=46	=46	=46	=46	=46	=46	=46	=46	=46	=46
1.r	.	1.r	.	1.r	.	2.D\	Weg	1.r	.	1.r	.	2d\	der	2F\	schwer,
.	.	.	.	.	.	.	.	.	.	.	.	2e-\	sau-	(4F#\	mir
.	.	.	.	.	.	4D\	wird	.	.	.	.	.	.	4G\)	.
.	.	.	.	.	.	4C/	mir	.	.	.	.	2F#/	-re	(4A\	zu
.	.	.	.	.	.	4C/	zu	.	.	.	.	.	.	4D\)	.
=47	=47	=47	=47	=47	=47	=47	=47	=47	=47	=47	=47	=47	=47	=47	=47
1.r	.	1.r	.	2d\	der	1BB-/	schwer,	1.r	.	1.r	.	2.G/	Weg	4B-\	schwer,
.	.	.	.	.	.	.	.	.	.	.	.	.	.	4G\	wird
.	.	.	.	2e-\	sau-	.	.	.	.	.	.	.	.	2c\	mir
.	.	.	.	.	.	.	.	.	.	.	.	4G/	wird	.	.
.	.	.	.	2F#/	-re	2AA/	zu	.	.	.	.	4A/	mir	2C/	zu
.	.	.	.	.	.	.	.	.	.	.	.	4A/	zu	.	.
=48	=48	=48	=48	=48	=48	=48	=48	=48	=48	=48	=48	=48	=48	=48	=48
1.r	.	1.r	.	2.G/	Weg	[1.GG/	schwer,	1.r	.	2g/	der	2B-\	schwer,	1D\	schwer,
.	.	.	.	.	.	.	.	.	.	2a-/	sau-	(4B\	mir	.	.
.	.	.	.	4G/	wird	.	.	.	.	.	.	4c\)	.	.	.
.	.	.	.	4F/	mir	.	.	.	.	2B/	-re	(4d\	zu	2D\	zu
.	.	.	.	4F/	zu	.	.	.	.	.	.	4G/)	.	.	.
=49	=49	=49	=49	=49	=49	=49	=49	=49	=49	=49	=49	=49	=49	=49	=49
1.r	.	2g/	der	1E-/	schwer,	1GG/]	.	1.r	.	2.c/	Weg	4e-\	schwer,	1GG/	schwer,
.	.	.	.	.	.	.	.	.	.	.	.	4c\	wird	.	.
.	.	2a-/	sau-	.	.	.	.	.	.	.	.	(4f\	mir	.	.
.	.	.	.	.	.	.	.	.	.	4c/	wird	4e-\)	.	.	.
.	.	2B/	-re	2D/	zu	2F\	der	.	.	4d/	mir	(4f\	zu	2r	.
.	.	.	.	.	.	.	.	.	.	4d/	zu	4d\)	.	.	.
=50	=50	=50	=50	=50	=50	=50	=50	=50	=50	=50	=50	=50	=50	=50	=50
1.r	.	2.c/	Weg	[1.C/	schwer,	4E-\	Weg	2cc\	der	2e-/	schwer,	1G/	schwer,	2r	.
.	.	.	.	.	.	4D\	wird	.	.	.	.	.	.	.	.
.	.	.	.	.	.	(4C/	mir	2dd-\	sau-	2e/	mir	.	.	2r	.
.	.	4c/	wird	.	.	4BB-/)	.	.	.	.	.	.	.	.	.
.	.	4B-/	mir	.	.	(4AA-/	zu	2e/	-re	2g/	zu	2c\	zu	2C/	der
.	.	4B-/	zu	.	.	4GG/)	.	.	.	.	.	.	.	.	.
=51	=51	=51	=51	=51	=51	=51	=51	=51	=51	=51	=51	=51	=51	=51	=51
2cc\	der	1A-/	schwer,	2C/]	.	[1.FF/	schwer,	2.f/	Weg	1a-/	schwer,	(2c\	schwer,	(2F\	sau-
2dd-\	sau-	.	.	2F/	mir	.	.	.	.	.	.	2B-\)	.	2B-\)	.
.	.	.	.	.	.	.	.	4f/	wird	.	.	.	.	.	.
2e/	-re	2d-/	wird	2B-\	zu	.	.	4g/	mir	2g/	wird	2e\	wird	2B-\	-re
.	.	.	.	.	.	.	.	4g/	zu	.	.	.	.	.	.
=52	=52	=52	=52	=52	=52	=52	=52	=52	=52	=52	=52	=52	=52	=52	=52
2.f/	Weg	(2c/	mir	4A-/	schwer,	1.FF/_	.	1a-/	schwer,	1f/	mir	(2c\	mir	2.A-\	Weg
.	.	.	.	4F/	wird	.	.	.	.	.	.	.	.	.	.
.	.	2B-/)	.	4d-\	mir	.	.	.	.	.	.	2F/)	.	.	.
4f/	wird	.	.	4c\	zu	.	.	.	.	.	.	.	.	4A-\	wird
4g/	mir	2e/	zu	2d-\	schwer,	.	.	2b-\	zu	2e/	zu	2B-\	zu	4G\	mir
4g/	zu	.	.	.	.	.	.	.	.	.	.	.	.	4G\	zu
=53	=53	=53	=53	=53	=53	=53	=53	=53	=53	=53	=53	=53	=53	=53	=53
1a-/	schwer,	1f/	schwer,	2c\	der	1.FF/]	.	1cc\	schwer,	1c/	schwer,	1A-/	schwer,	4F\	schwer,
.	.	.	.	.	.	.	.	.	.	.	.	.	.	4F\	der
.	.	.	.	2B\	sau-	.	.	.	.	.	.	.	.	(4A-\	sau-
.	.	.	.	.	.	.	.	.	.	.	.	.	.	4F\)	.
2r	.	2r	.	2c\	-re	.	.	4r	.	2f/	wird	2a-\	wird	(4D\	-re
.	.	.	.	.	.	.	.	4f/	der	.	.	.	.	4C/)	.
=54	=54	=54	=54	=54	=54	=54	=54	=54	=54	=54	=54	=54	=54	=54	=54
1.r	.	2g/	der	[1.d\	Weg	1.r	.	4g/	sau-	(2f/	mir	(2d\	mir	2.BB/	Weg
.	.	.	.	.	.	.	.	4a/	-re	.	.	.	.	.	.
.	.	2a-/	sau-	.	.	.	.	4b\	Weg	2d/)	.	2f\)	.	.	.
.	.	.	.	.	.	.	.	4cc\	wird	.	.	.	.	4BB/	wird
.	.	2g/	-re	.	.	.	.	4dd\	mir	2g/	zu	2d\	zu	4BB/	mir
.	.	.	.	.	.	.	.	4g/	zu	.	.	.	.	4BB/	zu
=55	=55	=55	=55	=55	=55	=55	=55	=55	=55	=55	=55	=55	=55	=55	=55
!	!	! (4fP/	!	!	!	!	!	!	!	!	!	!	!	!	!
2r	.	1e-p/)	Weg	2d\]	.	4r	.	2ee-\	schwer,	(2g/	schwer,	2G/	schwer,	2C/	schwer,
.	.	.	.	.	.	4c\	der	.	.	.	.	.	.	.	.
2r	.	.	.	2c\	.	(4e-\	sau-	2r	.	2f#/)	.	2r	.	2r	.
.	.	.	.	.	.	4c\)	.	.	.	.	.	.	.	.	.
4r	.	2ee-\	wird	2c\	wird	(4A\	-re	2r	.	2g/	der	2r	.	2r	.
4cc\	der	.	.	.	.	4G\)	.	.	.	.	.	.	.	.	.
=56	=56	=56	=56	=56	=56	=56	=56	=56	=56	=56	=56	=56	=56	=56	=56
4dd\	sau-	(2a/	mir	(2c\	mir	2.F#\	Weg	1.r	.	[1.a/	Weg,	2d\	wird	1.r	.
4ee\	-re	.	.	.	.	.	.	.	.	.	.	.	.	.	.
4ff#\	Weg	2cc\)	.	2A/)	.	.	.	.	.	.	.	2e-\	mir	.	.
4gg\	wird	.	.	.	.	4F#\	wird	.	.	.	.	.	.	.	.
4aa\	mir	2a/	zu	2d\	zu	4F#\	mir	.	.	.	.	2d\	zu	.	.
4a/	zu	.	.	.	.	4F#\	zu	.	.	.	.	.	.	.	.
=57	=57	=57	=57	=57	=57	=57	=57	=57	=57	=57	=57	=57	=57	=57	=57
2b-\	schwer,	2d/	schwer,	2d\	schwer,	2G\	schwer,	4r	.	4a/]	.	4B-\	schwer,	4r	.
.	.	.	.	.	.	.	.	4b-\	der	4b-\	der	4g\	der	4G\	der
2r	.	2r	.	2r	.	2r	.	4cc\	sau-	4a/	sau-	4f\	sau-	4A\	sau-
.	.	.	.	.	.	.	.	4dd\	-re	4g/	-re	8e-\L	-re	4B-\	-re
.	.	.	.	.	.	.	.	.	.	.	.	8d\J	.	.	.
4r	.	4r	.	4r	.	4r	.	4ee-\	Weg	4g/	Weg	4c\	Weg	4c\	Weg
4cc\	zu	4g/	zu	4e-\	zu	4C/	zu	4r	.	4r	.	4r	.	4r	.
=58	=58	=58	=58	=58	=58	=58	=58	=58	=58	=58	=58	=58	=58	=58	=58
1a/	schwer,	1f/	schwer,	1c\	schwer,	1F\	schwer,	4r	.	4r	.	4r	.	4r	.
.	.	.	.	.	.	.	.	4a/	wird	4f/	wird	4e-\	wird	4F\	wird
.	.	.	.	.	.	.	.	4b-\	mir	4f/	mir	4d\	mir	4G\	mir
.	.	.	.	.	.	.	.	4cc\	zu	4e-/	zu	4c\	zu	4A\	zu
4r	.	4r	.	4r	.	4r	.	4dd\	schwer,	4d/	schwer,	4B-\	schwer,	4B-\	schwer,
4b-\	zu	4f/	zu	4d\	zu	4BB-/	zu	4r	.	4r	.	4r	.	4r	.
=59	=59	=59	=59	=59	=59	=59	=59	=59	=59	=59	=59	=59	=59	=59	=59
1g/	schwer,	1e-/	schwer,	1B-\	schwer,	1E-\	schwer,	4r	.	4r	.	4r	.	4r	.
.	.	.	.	.	.	.	.	4g/	der	4g/	der	4B-\	der	4E-\	der
.	.	.	.	.	.	.	.	4cc\	sau-	4f/	sau-	4A/	sau-	4E-\	sau-
.	.	.	.	.	.	.	.	4dd\	-re	4f/	-re	4B\	-re	4D\	-re
4r	.	4r	.	4r	.	4r	.	4ee-\	Weg	4e-/	Weg	4c\	Weg	4C/	Weg
4g/	der	4g/	der	4e-\	der	4C/	der	4r	.	4r	.	4r	.	4r	.
=60	=60	=60	=60	=60	=60	=60	=60	=60	=60	=60	=60	=60	=60	=60	=60
4a/	sau-	4f#/	sau-	4d\	sau-	4c\	sau-	4r	.	4r	.	4r	.	4r	.
4b-\	-re	4g/	-re	4d\	-re	4B-\	-re	4dd\	wird	4b-\	wird	4g\	wird	4B-\	wird
4cc\	Weg	4a/	Weg	4f#\	Weg	4A\	Weg	(4cc\	mir	(4f#/	mir	(4d\	mir	(4A\	mir
4dd\	wird	4b-\	wird	4d\	wird	4G\	wird	4b-\)	.	4g/)	.	4G/)	.	4G\)	.
4ee-\	mir	4cc\	mir	4A/	mir	4F#\	mir	(4a/	zu	2c/	zu	2A/	zu	(4F#\	zu
4ee-\	zu	4cc\	zu	4A/	zu	4A\	zu	8b-\L	.	.	.	.	.	8G\L	.
.	.	.	.	.	.	.	.	8cc\J)	.	.	.	.	.	8A\J)	.
=61	=61	=61	=61	=61	=61	=61	=61	=61	=61	=61	=61	=61	=61	=61	=61
(2ee-\	schwer,	1cc\	schwer,	(2A/	schwer,	[1.D\	schwer!	(2g/	schwer,	1d/	schwer,	1A/	schwer,	[1.D\	schwer!
2dd\)	.	.	.	2f#\)	.	.	.	2f#/)	.	.	.	.	.	.	.
4r	.	4r	.	4r	.	.	.	2r	.	2r	.	2r	.	.	.
4cc\	der	4f#/	der	4A/	der	.	.	.	.	.	.	.	.	.	.
=62	=62	=62	=62	=62	=62	=62	=62	=62	=62	=62	=62	=62	=62	=62	=62
4b-\	sau-	4g/	sau-	4d\	sau-	1.D\_	.	2r	.	2r	.	2r	.	1.D\_	.
4cc\	-re	4a/	-re	4F#/	-re	.	.	.	.	.	.	.	.	.	.
4dd\	Weg	2b-\	Weg	4G/	Weg	.	.	2r	.	2r	.	2r	.	.	.
4g/	wird	.	.	4B-\	wird	.	.	.	.	.	.	.	.	.	.
4gg\	mir	2b-\	wird	4d\	mir	.	.	4r	.	4r	.	4r	.	.	.
4ee\	zu	.	.	4c#\	zu	.	.	4g/	der	4b-\	der	4g\	der	.	.
=63	=63	=63	=63	=63	=63	=63	=63	=63	=63	=63	=63	=63	=63	=63	=63
1cc#\	schwer,	(2b-\	mir	1e\	schwer,	1.D\_	.	4gg\	sau-	4b-\	sau-	4e\	sau-	1.D\_	.
.	.	.	.	.	.	.	.	4ee\	-re	4g/	-re	4e\	-re	.	.
.	.	2a/)	.	.	.	.	.	4cc#\	Weg	4e/	Weg	4g\	Weg	.	.
.	.	.	.	.	.	.	.	4g/	wird	4c#/	wird	4e\	wird	.	.
2cc#\	zu	2g/	zu	2e\	zu	.	.	4b-\	mir	4g/	mir	4c#\	mir	.	.
.	.	.	.	.	.	.	.	4a/	zu	4e/	zu	4E/	zu	.	.
=64	=64	=64	=64	=64	=64	=64	=64	=64	=64	=64	=64	=64	=64	=64	=64
*M4/4	*	*M4/4	*	*M4/4	*	*M4/4	*	*M4/4	*	*M4/4	*	*M4/4	*	*M4/4	*
*MM102	*MM102	*MM102	*MM102	*MM102	*MM102	*MM102	*MM102	*MM102	*MM102	*MM102	*MM102	*MM102	*MM102	*MM102	*MM102
(8cc#\L	schwer!	(8g/L	schwer!	(8e\L	schwer!	4D\]	.	(8g/L	schwer!	(8e/L	schwer!	(8B-/L	schwer!	4D\]	.
8dd\J)	.	8a/J)	.	8f#\J)	.	.	.	8f#/J)	.	8d/J)	.	8A/J)	.	.	.
4r	.	4r	.	4r	.	4r	.	4r	.	4r	.	4r	.	4r	.
2r	.	8r	.	2r	.	2r	.	4r	.	4r	.	4r	.	4r	.
.	.	8a/	Komm,	.	.	.	.	.	.	.	.	.	.	.	.
.	.	8f#/	komm,	.	.	.	.	8r	.	8r	.	8r	.	8r	.
.	.	8d/	ich	.	.	.	.	8ff#\	Komm,	8a/	Komm,	8d\	Komm,	8D\	Komm,
=65	=65	=65	=65	=65	=65	=65	=65	=65	=65	=65	=65	=65	=65	=65	=65
1r	.	8b-\	will	8r	.	2r	.	4gg\	komm,	4b-\	komm,	4d\	komm,	4G\	komm,
.	.	8b-\	mich	8d\	Komm,	.	.	.	.	.	.	.	.	.	.
.	.	8dd\	dir	8B-\	komm,	.	.	8r	.	8r	.	8r	.	8r	.
.	.	8b-\	er-	8G/	ich	.	.	8dd\	komm,	8g/	komm,	8B-\	komm,	8G\	komm,
.	.	8g/L	-ge-	8e-\	will	8r	.	4ee-\	komm,	4g/	komm,	4c\	komm,	4C/	komm,
.	.	16a/L	.	8e-\	mich	8G\	Komm,	.	.	.	.	.	.	.	.
.	.	16b-/JJ	.	.	.	.	.	.	.	.	.	.	.	.	.
.	.	[4cc\	.	8g\	dir	8E-\	komm,	8r	.	8r	.	8r	.	8r	.
.	.	.	.	8e-\	er-	8C/	ich	8ee-\	komm,	8g/	komm,	8c\	komm,	8C/	komm,
=66	=66	=66	=66	=66	=66	=66	=66	=66	=66	=66	=66	=66	=66	=66	=66
8r	.	8cc\]	.	8c\L	-ge-	8A\	will	4ff\	komm,	4a/	komm,	4c\	komm,	4F\	komm,
8cc\	Komm,	8a/	-ben,	16d\L	.	8A\	mich	.	.	.	.	.	.	.	.
.	.	.	.	16e-\JJ	.	.	.	.	.	.	.	.	.	.	.
8a/	komm,	8f/	komm,	[4f\	.	8c\	dir	8r	.	8r	.	8r	.	8r	.
8f/	ich	8a/	ich	.	.	8A\	er-	8cc\	komm,	8f/	komm,	8A/	komm,	8F\	komm,
8dd\	will	8b-\	will	8f\]	.	8F\L	-ge-	4dd\	komm,	4f/	komm,	4F/	komm,	4BB-/	komm,
8dd\	mich	8b-\	mich	8d\	-ben,	16G\L	.	.	.	.	.	.	.	.	.
.	.	.	.	.	.	16A\JJ	.	.	.	.	.	.	.	.	.
8ff\	dir	8dd\	dir	8B-\	dir	[4B-\	.	8r	.	8r	.	8r	.	8r	.
8dd\	er-	8b-\	er-	8d\	er-	.	.	8dd\	komm,	8b-\	komm,	8f\	komm,	8BB-/	komm,
=67	=67	=67	=67	=67	=67	=67	=67	=67	=67	=67	=67	=67	=67	=67	=67
8b-\L	-ge-	4.g/	-ge-	4.e-\	-ge-	8B-\]	.	8gg\	komm,	8b-\	komm,	8e-\	komm,	8E-\	komm,
16cc\L	.	.	.	.	.	8G\	-ben,	8ff\	ich	8b-\	ich	8f\	ich	8D\	ich
16dd\JJ	.	.	.	.	.	.	.	.	.	.	.	.	.	.	.
4.ee-\	.	.	.	.	.	8c\	komm,	8ee-\	will	8cc\	will	8g\	will	8C/	will
.	.	16a/LL	.	16f\LL	.	8B-\	ich	8dd\	mich	8g/	mich	8d\	mich	8BB-/	mich
.	.	16b-/J	.	16g\J	.	.	.	.	.	.	.	.	.	.	.
.	.	8cc/J	.	8c\J	.	8A\	will	4.cc\	dir	8a/	dir	8f\	dir	8AA/	dir
16ff\LL	.	8a/	-ben,	8c\	-ben,	8F\	mich	.	.	8a/	er-	8f\	er-	8FF/	er-
16ee-\JJ	.	.	.	.	.	.	.	.	.	.	.	.	.	.	.
16dd\LL	.	8f/	dir	8d\	dir	8B-\	dir	.	.	8d/L	-ge-	8f\L	-ge-	4BB-/	-ge-
16cc\	.	.	.	.	.	.	.	.	.	.	.	.	.	.	.
16dd\	.	8f/	er-	8F/	er-	8BB-/	er-	16b-\LL	er-	[8f/J	.	8B-\J	.	.	.
16ee-\JJ	.	.	.	.	.	.	.	16cc\JJ	.	.	.	.	.	.	.
=68	=68	=68	=68	=68	=68	=68	=68	=68	=68	=68	=68	=68	=68	=68	=68
8cc\	.	8f/	-ge-	8A/	-ge-	8F\	-ge-	8a/	-ge-	8f/]	.	8c\	-ben,	4FF/	-ben,
8cc\	-ben,	8f/	-ben,	8A/	-ben,	8F\	-ben,	8a/	-ben,	8f/	-ben,	8c\	komm,	.	.
8r	.	8r	.	8r	.	8r	.	4r	.	4r	.	8A/	komm,	4r	.
8cc\	komm,	8a/	komm,	8f\	komm,	8F\	komm,	.	.	.	.	8F/	ich	.	.
4dd\	komm,	4b-\	komm,	4f\	komm,	4B-\	komm,	2r	.	8r	.	8d\	will	2r	.
.	.	.	.	.	.	.	.	.	.	8f/	komm,	8d\	mich	.	.
8r	.	8r	.	8r	.	8r	.	.	.	8d/	komm,	8f\	dir	.	.
8ff\	komm,	8b-\	komm,	8d\	komm,	8BB-/	komm,	.	.	8B-/	ich	8d\	er-	.	.
=69	=69	=69	=69	=69	=69	=69	=69	=69	=69	=69	=69	=69	=69	=69	=69
4gg\	komm,	4b-\	komm,	4e-\	komm,	4E-\	komm,	8r	.	8g/	will	[2B-\	-ge-	2r	.
.	.	.	.	.	.	.	.	8b-\	komm,	8g/	mich	.	.	.	.
8r	.	8r	.	8r	.	8r	.	8g/	komm,	8b-\	dir	.	.	.	.
8b-\	ich	8g/	komm,	8e-\	komm,	8E-\	komm,	8e-/	ich	8g/	er-	.	.	.	.
8cc\	will	4g/	komm	4c\	komm	4AA/	komm	8cc\	will	[2e-/	-ge-	8B-/L]	.	8r	.
8cc\	mich	.	.	.	.	.	.	8cc\	mich	.	.	16A/L	.	8E-\	komm,
.	.	.	.	.	.	.	.	.	.	.	.	16G/JJ	.	.	.
8cc\	dir	8r	.	8r	.	8r	.	8ee-\	dir	.	.	[4A/	.	8C/	komm,
8cc\	er-	8g/	komm,	8e-\	komm,	8AA/	komm,	8cc\	er-	.	.	.	.	8AA/	ich
=70	=70	=70	=70	=70	=70	=70	=70	=70	=70	=70	=70	=70	=70	=70	=70
4.cc\	-ge-	8f#/	Je-	4A/	komm,	8D\	komm,	[2a/	-ge-	8e-/L]	.	16A/LL]	.	8F#\	will
.	.	.	.	.	.	.	.	.	.	.	.	16G/	.	.	.
.	.	8a/	-su,	.	.	8A\	komm,	.	.	16d/L	.	16F#/	.	8F#\	mich
.	.	.	.	.	.	.	.	.	.	16c/JJ	.	16E/JJ	.	.	.
.	.	4dd\	komm,	4r	.	8F#\	komm,	.	.	[4d/	.	[4D/	.	8A\	dir
16b-/LL	.	.	.	.	.	8D\	ich	.	.	.	.	.	.	8F#\	er-
16a/JJ	.	.	.	.	.	.	.	.	.	.	.	.	.	.	.
[2b-\	.	2r	.	8r	.	8B-\	will	8a/L]	.	16d/LL]	.	8D/L]	.	4.G\	-ge-
.	.	.	.	.	.	.	.	.	.	16c/	.	.	.	.	.
.	.	.	.	8d\	komm,	8B-\	mich	16g/L	.	16B-/	.	16G/L	.	.	.
.	.	.	.	.	.	.	.	16f#/JJ	.	16A/JJ	.	16A/JJ	.	.	.
.	.	.	.	8B-\	komm,	8d\	dir	[4g/	.	8G/L	.	8B-\L	.	.	.
.	.	.	.	8G/	ich	8B-\	er-	.	.	16A/L	.	16c\L	.	8F\	.
.	.	.	.	.	.	.	.	.	.	16B-/JJ	.	16d\JJ	.	.	.
=71	=71	=71	=71	=71	=71	=71	=71	=71	=71	=71	=71	=71	=71	=71	=71
4.b-\]	.	8r	.	8e-\	will	[4G\	-ge-	8g/L]	.	16c/LL	.	[4e-\	.	8E-\L	.
.	.	.	.	.	.	.	.	.	.	16B-/	.	.	.	.	.
.	.	8g/	komm,	8e-\	mich	.	.	16a/L	.	16c/	.	.	.	8D\	.
.	.	.	.	.	.	.	.	16b-/JJ	.	16d/JJ	.	.	.	.	.
.	.	8e-/	komm,	8g\	dir	16G\LL]	.	[4cc\	.	[4e-/	.	8e-\L]	.	8C\	.
.	.	.	.	.	.	16c\	.	.	.	.	.	.	.	.	.
16a/LL	.	8c/	ich	8e-\	er-	16B-\	.	.	.	.	.	8g\J	.	16D\L	.
16g/JJ	.	.	.	.	.	16c\JJ	.	.	.	.	.	.	.	16E-\JJ	.
8a/	-ben,	8a/	will	[2c\	-ge-	4.F\	.	8cc\L]	.	16e-/LL]	.	8f\L	.	4F\	.
.	.	.	.	.	.	.	.	.	.	16d/	.	.	.	.	.
8cc\	komm,	8a/	mich	.	.	.	.	8a\J	.	16c/	.	8F\J	.	.	.
.	.	.	.	.	.	.	.	.	.	16d/JJ	.	.	.	.	.
8a/	komm,	8cc\	dir	.	.	.	.	8f/	-ben,	16e-/LL	.	8A/	-ben,	8FF/	-ben,
.	.	.	.	.	.	.	.	.	.	16f/	.	.	.	.	.
8f/	ich	8a/	er-	.	.	16G\LL	.	8cc\	ich	16e-/	.	8A/	komm,	8F\	komm,
.	.	.	.	.	.	16A\JJ	.	.	.	16f/JJ	.	.	.	.	.
=72	=72	=72	=72	=72	=72	=72	=72	=72	=72	=72	=72	=72	=72	=72	=72
8dd\	will	[2f/	-ge-	8c\L]	.	8B-\	-ben,	8dd\	will	4d/	-ben,	4F/	komm,	4B-\	komm,
8dd\	mich	.	.	16B-\L	.	8F\	komm,	8dd\	mich	.	.	.	.	.	.
.	.	.	.	16A\JJ	.	.	.	.	.	.	.	.	.	.	.
8ff\	dir	.	.	[4B-\	.	8D\	komm,	8dd\	dir	8r	.	8r	.	8r	.
8dd\	er-	.	.	.	.	8BB-/	ich	8dd\	er-	8b-\	komm,	8f\	komm,	8B-\	komm,
[2b-\	-ge-	8f/L]	.	16B-/LL]	.	8G\	will	4.dd\	-ge-	4b-\	komm,	4g\	komm,	4E-\	komm,
.	.	.	.	16A-/	.	.	.	.	.	.	.	.	.	.	.
.	.	16e-/L	.	16G/	.	8G\	mich	.	.	.	.	.	.	.	.
.	.	16d/JJ	.	16F/JJ	.	.	.	.	.	.	.	.	.	.	.
.	.	[4e-/	.	[4E-/	.	8B-\	dir	.	.	8r	.	8r	.	8r	.
.	.	.	.	.	.	8G\	er-	16cc\LL	.	8g/	komm,	8e-\	komm,	8E-\	komm,
.	.	.	.	.	.	.	.	16b-\JJ	.	.	.	.	.	.	.
=73	=73	=73	=73	=73	=73	=73	=73	=73	=73	=73	=73	=73	=73	=73	=73
8b-/L]	.	16e-/LL]	.	8E-/L]	.	4.A-\	-ge-	[2cc\	.	4e-/	komm,	4c\	komm,	8AA-/	komm,
.	.	16d-/	.	.	.	.	.	.	.	.	.	.	.	.	.
16a-/L	.	16c/	.	16A-/L	.	.	.	.	.	.	.	.	.	8E-\	komm,
16g/JJ	.	16B-/JJ	.	16B-/JJ	.	.	.	.	.	.	.	.	.	.	.
[4a-/	.	8A-/L	.	8c\L	.	.	.	.	.	8r	.	8r	.	8C/	komm,
.	.	16B-/L	.	16d\L	.	8G\L	.	.	.	8e-/	ich	8c\	ich	8AA-/	ich
.	.	16c/JJ	.	16e-\JJ	.	.	.	.	.	.	.	.	.	.	.
16a-\LL]	.	16d/LL	.	[4f\	.	8F\	.	4.cc\]	.	8a-/	will	8f\	will	8F\	will
16cc\	.	16c/	.	.	.	.	.	.	.	.	.	.	.	.	.
16b\	.	16d/	.	.	.	8E-\J	.	.	.	8a-/	mich	8f\	mich	8F\	mich
16cc\JJ	.	16e-/JJ	.	.	.	.	.	.	.	.	.	.	.	.	.
[4dd\	.	[4f/	.	16f\LL]	.	8D\L	.	.	.	8a-/	dir	8f\	dir	8A-\	dir
.	.	.	.	16e-\	.	.	.	.	.	.	.	.	.	.	.
.	.	.	.	16d\	.	16E-\L	.	16b/LL	.	8a-/	er-	8f\	er-	8D\	er-
.	.	.	.	16c\JJ	.	16F\JJ	.	16a/JJ	.	.	.	.	.	.	.
=74	=74	=74	=74	=74	=74	=74	=74	=74	=74	=74	=74	=74	=74	=74	=74
8dd\L]	.	16f/LL]	.	4B\	.	4G\	.	8b\	-ben,	8a-/	-ge-	8d\	-ge-	8G\	-ge-
.	.	16e-/	.	.	.	.	.	.	.	.	.	.	.	.	.
8b\J	.	16d/	.	.	.	.	.	8dd\	komm,	8g/	-ben,	8d\	-ben,	8GG/	-ben,
.	.	16e-/JJ	.	.	.	.	.	.	.	.	.	.	.	.	.
8g/	-ben,	16f/LL	.	8B\	-ben,	8GG/	-ben,	8b\	komm,	8dd\	komm,	8r	.	4r	.
.	.	16g/	.	.	.	.	.	.	.	.	.	.	.	.	.
8dd\	ich	16f/	.	8B\	komm,	8G\	komm,	8g/	ich	8b\	ich	8d\	komm,	.	.
.	.	16g/JJ	.	.	.	.	.	.	.	.	.	.	.	.	.
8ee-\	will	16e-/LL	.	4c\	komm,	4c\	komm,	8ee-\	will	8g/	will	8c\	komm,	8r	.
.	.	16g/	.	.	.	.	.	.	.	.	.	.	.	.	.
8ee-\	mich	16a/	.	.	.	.	.	8ee-\	mich	8cc\	mich	8G/	ich	8G\	komm,
.	.	16b/J	.	.	.	.	.	.	.	.	.	.	.	.	.
8ee-\	dir	8cc/J	.	8r	.	8r	.	8gg\	dir	8cc\	dir	8G/	will	8E-\	komm,
8ee-\	er-	16b-\	-ben,	8c\	ich	8c\	ich	8ee-\	er-	8g/	er-	8c\	mich	8C/	ich
.	.	16cc\	ich	.	.	.	.	.	.	.	.	.	.	.	.
=75	=75	=75	=75	=75	=75	=75	=75	=75	=75	=75	=75	=75	=75	=75	=75
4.ee-\	-ge-	8a-/	will	8c\	will	8F\	will	8cc\L	-ge-	8g/L	-ge-	8.c\	dir	8A-\	will
.	.	8a-/	mich	8c\	mich	8F\	mich	16dd\L	.	[8f/	.	.	.	8A-\	mich
.	.	.	.	.	.	.	.	16ee-\JJ	.	.	.	16B-\	er-	.	.
.	.	8a-/	dir	8c\	dir	8A-\	dir	4.ff\	.	8f/]	.	(16A-\LL	-ge-	8c\	dir
.	.	.	.	.	.	.	.	.	.	.	.	16c\	.	.	.
16dd\LL	.	8a-/	er-	8f\	er-	8D\	er-	.	.	8a-/J	.	16d\	.	8F\	er-
16cc\JJ	.	.	.	.	.	.	.	.	.	.	.	16e-\JJ)	.	.	.
4.dd\	.	[2g/	-ge-	8d\L	-ge-	8G\L	-ge-	.	.	8d/	.	8d\	-ben,	8B\L	-ge-
.	.	.	.	8B\J	.	8F\	.	16ee-\LL	.	8g/	-ben,	8G/	mich	8G\	.
.	.	.	.	.	.	.	.	16dd\JJ	.	.	.	.	.	.	.
.	.	.	.	8G/	-ben,	8E-\	.	[4ee-\	.	8g/	dir	8G/	dir	8c\	.
16cc\LL	.	.	.	8c\	ich	8C\J	.	.	.	8g/	er-	8G/	er-	8E-\J	.
16b\JJ	.	.	.	.	.	.	.	.	.	.	.	.	.	.	.
=76	=76	=76	=76	=76	=76	=76	=76	=76	=76	=76	=76	=76	=76	=76	=76
4.cc\	.	8g/L]	.	8A-/	will	8F\L	.	8ee-\L]	.	[2a-/	-ge-	[4c\	-ge-	8A-\L	.
.	.	16f/L	.	8c\	mich	8G\	.	16dd\L	.	.	.	.	.	8E-\	.
.	.	16e-/JJ	.	.	.	.	.	16cc\JJ	.	.	.	.	.	.	.
.	.	4d/	.	4.f\	dir	8A-\	.	[4dd\	.	.	.	16c\LL]	.	8F\	.
.	.	.	.	.	.	.	.	.	.	.	.	16g\	.	.	.
16b/LL	.	.	.	.	.	8F\J	.	.	.	.	.	16f\	.	8D\J	.
16a/JJ	.	.	.	.	.	.	.	.	.	.	.	16e-\JJ	.	.	.
16b\LL	.	4d/	-ben,	.	.	8G\L	.	16dd\LL]	.	8a-/L]	.	4d\	.	8G\L	.
16dd\	.	.	.	.	.	.	.	16ff\	.	.	.	.	.	.	.
16ee-\	.	.	.	8B\	er-	8F\J	.	16ee-\	.	8d/J	.	.	.	8F\J	.
16ff\JJ	.	.	.	.	.	.	.	16dd\JJ	.	.	.	.	.	.	.
[4gg\	.	8r	.	[4c\	-ge-	8E-\	-ben,	16cc/LL	.	8g/	-ben,	8e-\	-ben,	8E-\	-ben,
.	.	.	.	.	.	.	.	16b-/	.	.	.	.	.	.	.
.	.	8e-/	er-	.	.	8C/	ich	16a-/	.	8e-/	ich	8e-\	ich	8C/	ich
.	.	.	.	.	.	.	.	16g/JJ	.	.	.	.	.	.	.
=77	=77	=77	=77	=77	=77	=77	=77	=77	=77	=77	=77	=77	=77	=77	=77
8gg\L]	.	16a-/LL	-ge-	4c\_	.	8F\	will	[4a-/	.	8c/	will	8f\	will	8F\	will
.	.	16b-/	.	.	.	.	.	.	.	.	.	.	.	.	.
16ff\L	.	16a-/	.	.	.	8G\	mich	.	.	8c/	mich	8c\	mich	8G\	mich
16ee-\JJ	.	16g/JJ	.	.	.	.	.	.	.	.	.	.	.	.	.
4.ff\	.	16f/LL	.	16c\LL]	.	8A-\	dir	16a-\LL]	.	8f/	dir	8c\	dir	8A-\	dir
.	.	16g/	.	16e-\	.	.	.	16b\	.	.	.	.	.	.	.
.	.	16f/	.	16d\	.	8F\	er-	16cc\	.	8f/	er-	8A-/	er-	8F\	er-
.	.	16e-/J	.	16c\J	.	.	.	16dd\J	.	.	.	.	.	.	.
.	.	8d/J	.	8d\J	.	8B\	-ge-	8g\J	.	8g/	-ge-	8d\	-ge-	8B\	-ge-
16ee-\LL	-ben,	8g/	-ben,	8d\	-ben,	8G\	-ben,	8b\	-ben,	8g/	-ben,	8d\	-ben,	8G\	-ben,
16dd\JJ	.	.	.	.	.	.	.	.	.	.	.	.	.	.	.
8ee-\	dir	8e-/	dir	8c\	dir	8c\	dir	16cc\LL	dir	8g/	dir	8G/	dir	8c\	dir
.	.	.	.	.	.	.	.	16b\JJ	.	.	.	.	.	.	.
8ff\	er-	8d/	er-	8A-/	er-	8F\	er-	8cc\	er-	8a-/	er-	8c\	er-	8F\	er-
=78	=78	=78	=78	=78	=78	=78	=78	=78	=78	=78	=78	=78	=78	=78	=78
4ee-\	-ge-	8e-/L	-ge-	2G/	-ge-	4G\	-ge-	4cc\	-ge-	8e-/L	-ge-	8c\L	-ge-	4G\	-ge-
.	.	8f/	.	.	.	.	.	.	.	16d/L	.	16d\L	.	.	.
.	.	.	.	.	.	.	.	.	.	16c/JJ	.	16e-\JJ	.	.	.
4dd\	.	8g/	.	.	.	4GG/	.	4b\	.	4d/	.	4G/	.	4GG/	.
.	.	8f/J	.	.	.	.	.	.	.	.	.	.	.	.	.
4cc\	-ben,	4e-/	-ben,	4G/	-ben,	4C/	-ben,	4cc\	-ben,	4e-/	-ben,	4G/	-ben,	4C/	-ben,
8r	.	8r	.	8r	.	8r	.	4r	.	4r	.	4r	.	4r	.
8ee-\	du	8g/	du	8c\	du	8c\	du	.	.	.	.	.	.	.	.
=79	=79	=79	=79	=79	=79	=79	=79	=79	=79	=79	=79	=79	=79	=79	=79
*M6/8	*	*M6/8	*	*M6/8	*	*M6/8	*	*M6/8	*	*M6/8	*	*M6/8	*	*M6/8	*
8ee-\L	bist	4g/	bist	8B-\L	bist	4G\	bist	4r	.	4r	.	4r	.	4r	.
8b-\J	.	.	.	8e-\J	.	.	.	.	.	.	.	.	.	.	.
8cc\	der	8e-/	der	8c\	der	8A-\	der	8r	.	8r	.	8r	.	8r	.
16g/LL	rech-	4e-/	rech-	8B-\L	rech-	8E-\L	rech-	8r	.	8r	.	8r	.	8r	.
16a-/JJ	.	.	.	.	.	.	.	.	.	.	.	.	.	.	.
8.a-T/Lxx	-te	.	.	8c\J	.	8C\J	.	8r	.	8r	.	8r	.	8r	.
.	.	8e-/	-te	8c\	-te	8AA-/	-te	8ee-\	du	8a-/	du	8c\	du	8A-\	du
32g/LL	.	.	.	.	.	.	.	.	.	.	.	.	.	.	.
32a-/JJJ	.	.	.	.	.	.	.	.	.	.	.	.	.	.	.
=80	=80	=80	=80	=80	=80	=80	=80	=80	=80	=80	=80	=80	=80	=80	=80
4b-\	Weg,	4e-/	Weg,	4G/	Weg,	4E-\	Weg,	8ee-\L	bist	8g/L	bist	4B-\	bist	8E-\L	bist
.	.	.	.	.	.	.	.	8b-\J	.	8e-/J	.	.	.	8G\J	.
8r	.	8r	.	8r	.	8r	.	8cc\	der	8e-/	der	8A-/	der	8A-\	der
8r	.	8r	.	8r	.	8r	.	16g/LL	rech-	4e-/	rech-	8B-\	rech-	16E-\LL	rech-
.	.	.	.	.	.	.	.	16a-/JJ	.	.	.	.	.	16F\JJ	.
8r	.	8r	.	8r	.	8r	.	8.a-T/Lxx	-te	.	.	4f\	-te	8.FT\Lxx	-te
8dd\	die	8b-\	die	8f\	die	8B-\	die	.	.	8d/	-te	.	.	.	.
.	.	.	.	.	.	.	.	32g/LL	.	.	.	.	.	32E-\LL	.
.	.	.	.	.	.	.	.	32a-/JJJ	.	.	.	.	.	32F\JJJ	.
=81	=81	=81	=81	=81	=81	=81	=81	=81	=81	=81	=81	=81	=81	=81	=81
8ee-\L	Wahr-	4b-\	Wahr-	8B-\L	Wahr-	4G\	Wahr-	4b-\	Weg,	4B-/	Weg,	4e-\	Weg,	4G\	Weg,
8cc\J	.	.	.	8e-\J	.	.	.	.	.	.	.	.	.	.	.
8dd\	-heit	8a-/	-heit	8f\	-heit	8F\	-heit	8r	.	8r	.	8r	.	8r	.
8ee-\L	und	4b-\	und	4B-\	und	8G\L	und	4r	.	4r	.	4r	.	4r	.
8ff\J	.	.	.	.	.	8F\J	.	.	.	.	.	.	.	.	.
8gg\	das	8b-\	das	8e-\	das	8E-\	das	8r	.	8r	.	8r	.	8r	.
=82	=82	=82	=82	=82	=82	=82	=82	=82	=82	=82	=82	=82	=82	=82	=82
8ff\L	Le-	4b-\	Le-	8d\L	Le-	4.B-\	Le-	4r	.	4r	.	4r	.	4r	.
16ee-\L	.	.	.	16g\L	.	.	.	.	.	.	.	.	.	.	.
16dd\	.	.	.	16f\	.	.	.	.	.	.	.	.	.	.	.
16cc\xx	.	8f/	.	16e-\xx	.	.	.	8r	.	8r	.	8r	.	8r	.
16b-\JJ	.	.	.	16d\JJ	.	.	.	.	.	.	.	.	.	.	.
4b-\	-ben,	4f/	-ben,	4d\	-ben,	4BB-/	-ben,	8r	.	8r	.	8r	.	8r	.
.	.	.	.	.	.	.	.	8r	.	8r	.	8r	.	8r	.
8r	.	8r	.	8r	.	8r	.	8ff\	die	8b-\	die	8d\	die	8B-\	die
=83	=83	=83	=83	=83	=83	=83	=83	=83	=83	=83	=83	=83	=83	=83	=83
2.r	.	2.r	.	2.r	.	2.r	.	8gg\L	Wahr-	8b-/L	Wahr-	4e-\	Wahr-	4E-\	Wahr-
.	.	.	.	.	.	.	.	8cc\J	.	8g/J	.	.	.	.	.
.	.	.	.	.	.	.	.	8b\	-heit	8g/	-heit	8f\	-heit	8D\	-heit
.	.	.	.	.	.	.	.	8cc\L	und	4g/	und	8e-\L	und	8E-\L	und
.	.	.	.	.	.	.	.	8dd\J	.	.	.	8B\J	.	8D\J	.
.	.	.	.	.	.	.	.	8ee-\	das	8g/	das	8c\	das	8C/	das
=84	=84	=84	=84	=84	=84	=84	=84	=84	=84	=84	=84	=84	=84	=84	=84
4r	.	4r	.	4r	.	4r	.	8dd/L	Le-	4g/	Le-	8B\L	Le-	4.G\	Le-
.	.	.	.	.	.	.	.	16cc/L	.	.	.	16e-\L	.	.	.
.	.	.	.	.	.	.	.	16b/	.	.	.	16d\	.	.	.
8r	.	8r	.	8r	.	8r	.	16a/	.	8d/	.	16c\	.	.	.
.	.	.	.	.	.	.	.	16g/JJ	.	.	.	16B\JJ	.	.	.
8r	.	8r	.	8r	.	8r	.	4g/	-ben,	4d/	-ben,	4B\	-ben,	4GG/	-ben,
8r	.	8r	.	8r	.	8r	.	.	.	.	.	.	.	.	.
8gg\	du	8g/	du	8d\	du	8B\	du	8r	.	8r	.	8r	.	8r	.
=85	=85	=85	=85	=85	=85	=85	=85	=85	=85	=85	=85	=85	=85	=85	=85
8ee-\L	bist	4g/	bist	8c\L	bist	8c\L	bist	2.r	.	2.r	.	2.r	.	2.r	.
8dd\J	.	.	.	8d\J	.	8B\J	.	.	.	.	.	.	.	.	.
8ee-\	der	8g/	der	8c\	der	8c\	der	.	.	.	.	.	.	.	.
8ee-\L	rech-	[4.a-/	rech-	4c\	rech-	8F\L	rech-	.	.	.	.	.	.	.	.
8gg\J	.	.	.	.	.	8G\J	.	.	.	.	.	.	.	.	.
8ff\	-te	.	.	8c\	-te	8A-\	-te	.	.	.	.	.	.	.	.
=86	=86	=86	=86	=86	=86	=86	=86	=86	=86	=86	=86	=86	=86	=86	=86
[4.dd\	Weg,	8a-/L]	.	[4.B-\	Weg,	8B-\L	Weg,	2.r	.	2.r	.	2.r	.	2.r	.
.	.	16b-/L	.	.	.	8A-\J	.	.	.	.	.	.	.	.	.
.	.	16a-/JJ	.	.	.	.	.	.	.	.	.	.	.	.	.
.	.	16g/LL	-te	.	.	8B-\	die	.	.	.	.	.	.	.	.
.	.	16f/JJ	.	.	.	.	.	.	.	.	.	.	.	.	.
4dd\]	.	4g/	Weg,	4B-\]	.	8E-\L	Wahr-	.	.	.	.	.	.	.	.
.	.	.	.	.	.	8F\J	.	.	.	.	.	.	.	.	.
8ee-\	die	8g/	die	8B-\	die	8G\	-heit	.	.	.	.	.	.	.	.
=87	=87	=87	=87	=87	=87	=87	=87	=87	=87	=87	=87	=87	=87	=87	=87
8cc\L	Wahr-	4g/	Wahr-	8e-\L	Wahr-	8A-\L	und	2.r	.	2.r	.	2.r	.	2.r	.
8b\J	.	.	.	8f\J	.	8G\J	.	.	.	.	.	.	.	.	.
8cc\	-heit	8g/	-heit	8e-\	-heit	8A-\	das	.	.	.	.	.	.	.	.
4ff\	und	8f/L	und	8d\L	und	8D\L	Le-	.	.	.	.	.	.	.	.
.	.	8g/J	.	16f\L	.	8E-\	.	.	.	.	.	.	.	.	.
.	.	.	.	16e-\JJ	.	.	.	.	.	.	.	.	.	.	.
8ff\	das	8a-/	das	16d\LL	das	8F\J	.	.	.	.	.	.	.	.	.
.	.	.	.	16c\JJ	.	.	.	.	.	.	.	.	.	.	.
=88	=88	=88	=88	=88	=88	=88	=88	=88	=88	=88	=88	=88	=88	=88	=88
8ff\L	Le-	[4.g/	Le-	8B\L	Le-	8G\L	.	2.r	.	2.r	.	2.r	.	2.r	.
16gg\L	.	.	.	8c\	.	8A\	.	.	.	.	.	.	.	.	.
16ff\	.	.	.	.	.	.	.	.	.	.	.	.	.	.	.
16ee-\	.	.	.	8d\J	.	8B\J	.	.	.	.	.	.	.	.	.
16dd\JJ	.	.	.	.	.	.	.	.	.	.	.	.	.	.	.
[4.ee-\	.	8g/L]	.	[4.c\	.	8c\L	.	.	.	.	.	.	.	.	.
.	.	16a-/L	.	.	.	8B\	.	.	.	.	.	.	.	.	.
.	.	16g/	.	.	.	.	.	.	.	.	.	.	.	.	.
.	.	16f/	.	.	.	8c\J	.	.	.	.	.	.	.	.	.
.	.	16e-/JJ	.	.	.	.	.	.	.	.	.	.	.	.	.
=89	=89	=89	=89	=89	=89	=89	=89	=89	=89	=89	=89	=89	=89	=89	=89
8ee-\L]	.	[4.a-/	.	4.c\]	.	8F\L	.	2.r	.	2.r	.	2.r	.	2.r	.
16ff\L	.	.	.	.	.	8G\	.	.	.	.	.	.	.	.	.
16ee-\	.	.	.	.	.	.	.	.	.	.	.	.	.	.	.
16dd\	.	.	.	.	.	8A-\J	.	.	.	.	.	.	.	.	.
16cc\JJ	.	.	.	.	.	.	.	.	.	.	.	.	.	.	.
[4.dd\	.	8a-/L]	.	4B-\	-ben,	8B-\L	.	.	.	.	.	.	.	.	.
.	.	16b-/L	.	.	.	8A-\	.	.	.	.	.	.	.	.	.
.	.	16a-/	.	.	.	.	.	.	.	.	.	.	.	.	.
.	.	16g/	.	8d\	die	8B-\J	.	.	.	.	.	.	.	.	.
.	.	16f/JJ	.	.	.	.	.	.	.	.	.	.	.	.	.
=90	=90	=90	=90	=90	=90	=90	=90	=90	=90	=90	=90	=90	=90	=90	=90
8dd\L]	.	[4.g/	.	[4.e-\	Wahr-	8E-\L	.	2.r	.	2.r	.	2.r	.	2.r	.
16ee-\L	.	.	.	.	.	8F\	.	.	.	.	.	.	.	.	.
16dd\	.	.	.	.	.	.	.	.	.	.	.	.	.	.	.
16cc\	.	.	.	.	.	8G\J	.	.	.	.	.	.	.	.	.
16b\J	.	.	.	.	.	.	.	.	.	.	.	.	.	.	.
8cc\J	.	8g/L]	.	8e-\L]	.	[4.A-\	.	.	.	.	.	.	.	.	.
8dd\	-ben,	16a-/L	.	16f\L	.	.	.	.	.	.	.	.	.	.	.
.	.	16g/	.	16e-\	.	.	.	.	.	.	.	.	.	.	.
8ee-\	die	16f/	.	16d\	.	.	.	.	.	.	.	.	.	.	.
.	.	16e-/JJ	.	16c\JJ	.	.	.	.	.	.	.	.	.	.	.
=91	=91	=91	=91	=91	=91	=91	=91	=91	=91	=91	=91	=91	=91	=91	=91
[4.ff\	Wahr-	8cc\L	.	[4.d\	.	8A-\L]	.	2.r	.	2.r	.	2.r	.	2.r	.
.	.	16dd\L	.	.	.	16B-\L	.	.	.	.	.	.	.	.	.
.	.	16cc\	.	.	.	16A-\	.	.	.	.	.	.	.	.	.
.	.	16b\	.	.	.	16G\	.	.	.	.	.	.	.	.	.
.	.	16a\JJ	.	.	.	16F\JJ	.	.	.	.	.	.	.	.	.
8ff\L]	.	16b\LL	.	16d\LL]	.	8B\L	.	.	.	.	.	.	.	.	.
.	.	16cc\J	.	16e-\J	.	.	.	.	.	.	.	.	.	.	.
8dd\J	.	8dd\J	.	8f\J	.	16c\L	.	.	.	.	.	.	.	.	.
.	.	.	.	.	.	16B\	.	.	.	.	.	.	.	.	.
8gg\	-heit	8dd\	-ben,	8B\	-heit	16A\	.	.	.	.	.	.	.	.	.
.	.	.	.	.	.	16G\JJ	.	.	.	.	.	.	.	.	.
=92	=92	=92	=92	=92	=92	=92	=92	=92	=92	=92	=92	=92	=92	=92	=92
8ee-\L	und	4g/	und	8c\L	und	4c\	-ben,	4r	.	4r	.	4r	.	4r	.
8dd\J	.	.	.	8d\J	.	.	.	.	.	.	.	.	.	.	.
8cc\	das	8a-/	das	8e-\	das	8F\	das	8r	.	8r	.	8r	.	8r	.
8cc\L	Le-	4.g/	Le-	8e-\L	Le-	4G\	Le-	8r	.	8r	.	8r	.	8r	.
16b\L	.	.	.	16d\L	.	.	.	8r	.	8r	.	8r	.	8r	.
16a\J	.	.	.	16c\J	.	.	.	.	.	.	.	.	.	.	.
8b\J	.	.	.	8d\J	.	8GG/	.	8gg\	du	8b\	du	8d\	du	8G\	du
=93	=93	=93	=93	=93	=93	=93	=93	=93	=93	=93	=93	=93	=93	=93	=93
4cc\	-ben,	4g/	-ben,	4e-\	-ben,	4C/	-ben,	8ee-\L	bist	4g/	bist	8c\L	bist	8c\L	bist
.	.	.	.	.	.	.	.	8dd\J	.	.	.	8d\J	.	8B\J	.
8r	.	8r	.	8r	.	8r	.	8ee-\	der	8g/	der	8c\	der	8c\	der
4r	.	4r	.	4r	.	4r	.	8ee-\L	rech-	[4.a-/	rech-	4c\	rech-	8F\L	rech-
.	.	.	.	.	.	.	.	8gg\J	.	.	.	.	.	8G\J	.
8r	.	8r	.	8r	.	8r	.	8ff\	-te	.	.	8c\	-te	8A-\	-te
=94	=94	=94	=94	=94	=94	=94	=94	=94	=94	=94	=94	=94	=94	=94	=94
2.r	.	2.r	.	2.r	.	2.r	.	[4.dd\	Weg,	8a-/L]	.	[4.B-\	Weg,	8B-\L	Weg,
.	.	.	.	.	.	.	.	.	.	16b-/L	.	.	.	8A-\J	.
.	.	.	.	.	.	.	.	.	.	16a-/JJ	.	.	.	.	.
.	.	.	.	.	.	.	.	.	.	16g/LL	-te	.	.	8B-\	die
.	.	.	.	.	.	.	.	.	.	16f/JJ	.	.	.	.	.
.	.	.	.	.	.	.	.	4dd\]	.	4g/	Weg,	4B-\]	.	8E-\L	Wahr-
.	.	.	.	.	.	.	.	.	.	.	.	.	.	8F\J	.
.	.	.	.	.	.	.	.	8ee-\	die	8g/	die	8B-\	die	8G\	-heit
=95	=95	=95	=95	=95	=95	=95	=95	=95	=95	=95	=95	=95	=95	=95	=95
2.r	.	2.r	.	2.r	.	2.r	.	8cc\L	Wahr-	4g/	Wahr-	8e-\L	Wahr-	8A-\L	und
.	.	.	.	.	.	.	.	8b\J	.	.	.	8f\J	.	8G\J	.
.	.	.	.	.	.	.	.	8cc\	-heit	8g/	-heit	8e-\	-heit	8A-\	das
.	.	.	.	.	.	.	.	4ff\	und	8f/L	und	8d\L	und	8D\L	Le-
.	.	.	.	.	.	.	.	.	.	8g/J	.	16f\L	.	8E-\	.
.	.	.	.	.	.	.	.	.	.	.	.	16e-\JJ	.	.	.
.	.	.	.	.	.	.	.	8ff\	das	8a-/	das	16d\LL	das	8F\J	.
.	.	.	.	.	.	.	.	.	.	.	.	16c\JJ	.	.	.
=96	=96	=96	=96	=96	=96	=96	=96	=96	=96	=96	=96	=96	=96	=96	=96
2.r	.	2.r	.	2.r	.	2.r	.	8ff\L	Le-	[4.g/	Le-	8B\L	Le-	8G\L	.
.	.	.	.	.	.	.	.	16gg\L	.	.	.	8c\	.	8A\	.
.	.	.	.	.	.	.	.	16ff\	.	.	.	.	.	.	.
.	.	.	.	.	.	.	.	16ee-\	.	.	.	8d\J	.	8B\J	.
.	.	.	.	.	.	.	.	16dd\JJ	.	.	.	.	.	.	.
.	.	.	.	.	.	.	.	[4.ee-\	.	8g/L]	.	[4.c\	.	8c\L	.
.	.	.	.	.	.	.	.	.	.	16a-/L	.	.	.	8B\	.
.	.	.	.	.	.	.	.	.	.	16g/	.	.	.	.	.
.	.	.	.	.	.	.	.	.	.	16f/	.	.	.	8c\J	.
.	.	.	.	.	.	.	.	.	.	16e-/JJ	.	.	.	.	.
=97	=97	=97	=97	=97	=97	=97	=97	=97	=97	=97	=97	=97	=97	=97	=97
2.r	.	2.r	.	2.r	.	2.r	.	8ee-\L]	.	[4.a-/	.	4.c\]	.	8F\L	.
.	.	.	.	.	.	.	.	16ff\L	.	.	.	.	.	8G\	.
.	.	.	.	.	.	.	.	16ee-\	.	.	.	.	.	.	.
.	.	.	.	.	.	.	.	16dd\	.	.	.	.	.	8A-\J	.
.	.	.	.	.	.	.	.	16cc\JJ	.	.	.	.	.	.	.
.	.	.	.	.	.	.	.	[4.dd\	.	8a-/L]	.	4B-\	-ben,	8B-\L	.
.	.	.	.	.	.	.	.	.	.	16b-/L	.	.	.	8A-\	.
.	.	.	.	.	.	.	.	.	.	16a-/	.	.	.	.	.
.	.	.	.	.	.	.	.	.	.	16g/	.	8d\	die	8B-\J	.
.	.	.	.	.	.	.	.	.	.	16f/JJ	.	.	.	.	.
=98	=98	=98	=98	=98	=98	=98	=98	=98	=98	=98	=98	=98	=98	=98	=98
2.r	.	2.r	.	2.r	.	2.r	.	8dd\L]	.	[4.g/	.	[4.e-\	Wahr-	8E-\L	.
.	.	.	.	.	.	.	.	16ee-\L	.	.	.	.	.	8F\	.
.	.	.	.	.	.	.	.	16dd\	.	.	.	.	.	.	.
.	.	.	.	.	.	.	.	16cc\	.	.	.	.	.	8G\J	.
.	.	.	.	.	.	.	.	16b\J	.	.	.	.	.	.	.
.	.	.	.	.	.	.	.	8cc\J	.	8g/L]	.	8e-\L]	.	[4.A-\	.
.	.	.	.	.	.	.	.	8dd\	-ben,	16a-/L	.	16f\L	.	.	.
.	.	.	.	.	.	.	.	.	.	16g/	.	16e-\	.	.	.
.	.	.	.	.	.	.	.	8ee-\	die	16f/	.	16d\	.	.	.
.	.	.	.	.	.	.	.	.	.	16e-/JJ	.	16c\JJ	.	.	.
=99	=99	=99	=99	=99	=99	=99	=99	=99	=99	=99	=99	=99	=99	=99	=99
2.r	.	2.r	.	2.r	.	2.r	.	[4.ff\	Wahr-	8cc\L	.	[4.d\	.	8A-\L]	.
.	.	.	.	.	.	.	.	.	.	16dd\L	.	.	.	16B-\L	.
.	.	.	.	.	.	.	.	.	.	16cc\	.	.	.	16A-\	.
.	.	.	.	.	.	.	.	.	.	16b\	.	.	.	16G\	.
.	.	.	.	.	.	.	.	.	.	16a\JJ	.	.	.	16F\JJ	.
.	.	.	.	.	.	.	.	8ff\L]	.	16b\LL	.	16d\LL]	.	8B\L	.
.	.	.	.	.	.	.	.	.	.	16cc\J	.	16e-\J	.	.	.
.	.	.	.	.	.	.	.	8dd\J	.	8dd\J	.	8f\J	.	16c\L	.
.	.	.	.	.	.	.	.	.	.	.	.	.	.	16B\	.
.	.	.	.	.	.	.	.	8gg\	-heit	8dd\	-ben,	8B\	-heit	16A\	.
.	.	.	.	.	.	.	.	.	.	.	.	.	.	16G\JJ	.
=100	=100	=100	=100	=100	=100	=100	=100	=100	=100	=100	=100	=100	=100	=100	=100
4r	.	4r	.	4r	.	4r	.	8ee-\L	und	4g/	und	8c\L	und	4c\	-ben,
.	.	.	.	.	.	.	.	8dd\J	.	.	.	8d\J	.	.	.
8r	.	8r	.	8r	.	8r	.	8cc\	das	8a-/	das	8e-\	das	8F\	das
8r	.	8r	.	8r	.	8r	.	8cc\L	Le-	4.g/	Le-	8e-\L	Le-	4.G\	Le-
8r	.	8r	.	8r	.	8r	.	16b\L	.	.	.	16d\L	.	.	.
.	.	.	.	.	.	.	.	16a\J	.	.	.	16c\J	.	.	.
8gg\	du	8dd\	du	8g\	du	8G\	du	8b\J	.	.	.	8d\J	.	.	.
=101	=101	=101	=101	=101	=101	=101	=101	=101	=101	=101	=101	=101	=101	=101	=101
8ee-\L	bist	8cc/L	bist	8g\L	bist	4c\	bist	4cc\	-ben,	4g/	-ben,	4e-\	-ben,	4C/	-ben,
8cc\J	.	8g/J	.	8e-\J	.	.	.	.	.	.	.	.	.	.	.
8dd\	der	8a-/	der	8f\	der	8F\	der	8r	.	8r	.	8r	.	8r	.
8g/L	rech-	16e-/LL	rech-	16c\LL	rech-	8F\L	rech-	8r	.	8r	.	8r	.	8r	.
.	.	16f/JJ	.	16d\JJ	.	.	.	.	.	.	.	.	.	.	.
8cc/J	.	8.fT/Lxx	-te	8.dT\L	-te	8E-\J	.	8r	.	8r	.	8r	.	8r	.
8b\	-te	.	.	.	.	8D\	-te	8gg\	du	8b\	du	8g\	du	8G\	du
.	.	32e-/LL	.	32c\LL	.	.	.	.	.	.	.	.	.	.	.
.	.	32f/JJJ	.	32d\JJJ	.	.	.	.	.	.	.	.	.	.	.
=102	=102	=102	=102	=102	=102	=102	=102	=102	=102	=102	=102	=102	=102	=102	=102
4cc\	Weg,	4g/	Weg,	4e-\	Weg,	4C/	Weg,	8ee-\L	bist	4g/	bist	8g\L	bist	4c\	bist
.	.	.	.	.	.	.	.	8cc\J	.	.	.	8e-\J	.	.	.
8r	.	8r	.	8r	.	8r	.	8dd\	der	8a-/	der	8f\	der	8F\	der
8r	.	8r	.	8r	.	8r	.	8g/L	rech-	16e-/LL	rech-	16c\LL	rech-	8F\L	rech-
.	.	.	.	.	.	.	.	.	.	16f/JJ	.	16d\JJ	.	.	.
8r	.	8r	.	8r	.	8r	.	8cc/J	.	8.fT/Lxx	-te	8.dT\Lxx	-te	8E-\J	.
8g/	die	8d/	die	8B\	die	8G\	die	8b\	-te	.	.	.	.	8D\	-te
.	.	.	.	.	.	.	.	.	.	32e-/LL	.	32c\LL	.	.	.
.	.	.	.	.	.	.	.	.	.	32f/JJJ	.	32d\JJJ	.	.	.
=103	=103	=103	=103	=103	=103	=103	=103	=103	=103	=103	=103	=103	=103	=103	=103
8ee-\L	Wahr-	8e-/L	Wahr-	4G/	Wahr-	8C/L	Wahr-	4cc\	Weg,	4g/	Weg,	4e-\	Weg,	4C/	Weg,
8dd\J	.	8f/J	.	.	.	8D/J	.	.	.	.	.	.	.	.	.
8cc\	-heit	8g/	-heit	8G/	-heit	8E-\	-heit	8r	.	8r	.	8r	.	8r	.
8ff\L	und	8c/L	und	8A/L	und	8E-\L	und	4r	.	4r	.	4r	.	4r	.
8b-\J	.	8d/J	.	8B-/J	.	8D\J	.	.	.	.	.	.	.	.	.
8dd\	das	8f/	das	8B-\	das	8BB-/	das	8r	.	8r	.	8r	.	8r	.
=104	=104	=104	=104	=104	=104	=104	=104	=104	=104	=104	=104	=104	=104	=104	=104
8cc/L	Le-	(4f/	Le-	8A\L	Le-	4.F\	Le-	4r	.	4r	.	4r	.	4r	.
16b-/L	.	.	.	16d\L	.	.	.	.	.	.	.	.	.	.	.
16a/	.	.	.	16c\	.	.	.	.	.	.	.	.	.	.	.
16g/	.	8c/)	.	16B-\	.	.	.	8r	.	8r	.	8r	.	8r	.
16f/JJ	.	.	.	16A\JJ	.	.	.	.	.	.	.	.	.	.	.
4f/	-ben,	4c/	-ben,	4A/	-ben,	4FF/	-ben,	8r	.	8r	.	8r	.	8r	.
.	.	.	.	.	.	.	.	8r	.	8r	.	8r	.	8r	.
8r	.	8r	.	8r	.	8r	.	8cc\	die	8f/	die	8A/	die	8F\	die
=105	=105	=105	=105	=105	=105	=105	=105	=105	=105	=105	=105	=105	=105	=105	=105
2.r	.	2.r	.	2.r	.	2.r	.	8dd/L	Wahr-	8f/L	Wahr-	4B-\	Wahr-	4BB-/	Wahr-
.	.	.	.	.	.	.	.	8g/J	.	8d/J	.	.	.	.	.
.	.	.	.	.	.	.	.	8f#/	-heit	8d/	-heit	8c\	-heit	8AA/	-heit
.	.	.	.	.	.	.	.	8g/L	und	4d/	und	8B-/L	und	8BB-/L	und
.	.	.	.	.	.	.	.	8a/J	.	.	.	8F#/J	.	8AA/J	.
.	.	.	.	.	.	.	.	8b-\	das	8d/	das	8G/	das	8GG/	das
=106	=106	=106	=106	=106	=106	=106	=106	=106	=106	=106	=106	=106	=106	=106	=106
2.r	.	4r	.	4r	.	4r	.	8a/L	Le-	4d/	Le-	8F#/L	Le-	4.D\	Le-
.	.	.	.	.	.	.	.	16g/L	.	.	.	16B-/L	.	.	.
.	.	.	.	.	.	.	.	16f#/	.	.	.	16A/	.	.	.
.	.	8r	.	8r	.	8r	.	16e/xx	.	8A/	.	16G/xx	.	.	.
.	.	.	.	.	.	.	.	16d/JJ	.	.	.	16F#/JJ	.	.	.
.	.	8r	.	8r	.	8r	.	4d/	-ben,	4A/	-ben,	4F#/	-ben,	4D\	-ben,
.	.	8r	.	8r	.	8r	.	.	.	.	.	.	.	.	.
.	.	8dd\	du	8a\	du	8F#\	du	8r	.	8r	.	8r	.	8r	.
=107	=107	=107	=107	=107	=107	=107	=107	=107	=107	=107	=107	=107	=107	=107	=107
8r	.	8b-/L	bist	4d\	bist	8G\L	bist	2.r	.	2.r	.	2.r	.	2.r	.
8r	.	8a/J	.	.	.	8F#\J	.	.	.	.	.	.	.	.	.
8gg\	du	8b-\	der	8d\	der	8G\	der	.	.	.	.	.	.	.	.
4ee-\	bist	8b-\L	rech-	4c\	rech-	8C/L	rech-	.	.	.	.	.	.	.	.
.	.	8dd\J	.	.	.	8D/J	.	.	.	.	.	.	.	.	.
8ee-\	der	8cc\	-te	8c\	-te	8E-\	-te	.	.	.	.	.	.	.	.
=108	=108	=108	=108	=108	=108	=108	=108	=108	=108	=108	=108	=108	=108	=108	=108
8ee-\L	rech-	[4.a/	Weg,	4c\	Weg,	8F\L	Weg,	2.r	.	2.r	.	2.r	.	2.r	.
8gg\J	.	.	.	.	.	8E-\J	.	.	.	.	.	.	.	.	.
8ff\	-te	.	.	8f\	der	8F\	die	.	.	.	.	.	.	.	.
[4.dd\	Weg,	4a/]	.	4f\	rech-	8BB-/L	Wahr-	.	.	.	.	.	.	.	.
.	.	.	.	.	.	8C/J	.	.	.	.	.	.	.	.	.
.	.	8b-\	die	8f\	-te	8D\	-heit	.	.	.	.	.	.	.	.
=109	=109	=109	=109	=109	=109	=109	=109	=109	=109	=109	=109	=109	=109	=109	=109
4dd\]	.	8g/L	Wahr-	[4.e-\	Weg,	8E-\L	und	2.r	.	2.r	.	2.r	.	2.r	.
.	.	8f#/J	.	.	.	8D\J	.	.	.	.	.	.	.	.	.
8dd\	die	8g/	-heit	.	.	8E-\	das	.	.	.	.	.	.	.	.
8cc\L	Wahr-	4cc\	und	4e-\]	.	8AA/L	Le-	.	.	.	.	.	.	.	.
8dd\J	.	.	.	.	.	8BB-/	.	.	.	.	.	.	.	.	.
8ee-\	-heit	8cc\	das	8A/	die	8C/J	.	.	.	.	.	.	.	.	.
=110	=110	=110	=110	=110	=110	=110	=110	=110	=110	=110	=110	=110	=110	=110	=110
4f#/	und	8cc\L	Le-	8A/L	Wahr-	8D\L	.	2.r	.	2.r	.	2.r	.	2.r	.
.	.	16dd\L	.	8G/J	.	8E\	.	.	.	.	.	.	.	.	.
.	.	16cc\	.	.	.	.	.	.	.	.	.	.	.	.	.
8dd\	das	16b-\	.	8c\	-heit	8F#\J	.	.	.	.	.	.	.	.	.
.	.	16a\JJ	.	.	.	.	.	.	.	.	.	.	.	.	.
16gg\LL	Le-	[4.b-\	.	8B-\L	und	8G\L	.	.	.	.	.	.	.	.	.
16aa\	.	.	.	.	.	.	.	.	.	.	.	.	.	.	.
16gg\	.	.	.	8d\J	.	8F#\	.	.	.	.	.	.	.	.	.
16ff\	.	.	.	.	.	.	.	.	.	.	.	.	.	.	.
16ee-\	.	.	.	8g\	das	8G\J	.	.	.	.	.	.	.	.	.
16dd\JJ	.	.	.	.	.	.	.	.	.	.	.	.	.	.	.
=111	=111	=111	=111	=111	=111	=111	=111	=111	=111	=111	=111	=111	=111	=111	=111
[4.ee-\	.	8b-/L]	.	8g\L	Le-	8C\L	.	2.r	.	2.r	.	2.r	.	2.r	.
.	.	16cc/L	.	8f\	.	8D\	.	.	.	.	.	.	.	.	.
.	.	16b-/	.	.	.	.	.	.	.	.	.	.	.	.	.
.	.	16a/	.	8g\J	.	8E-\J	.	.	.	.	.	.	.	.	.
.	.	16g/JJ	.	.	.	.	.	.	.	.	.	.	.	.	.
8ee-\L]	.	[4.a/	.	4f\	-ben,	8F\L	.	.	.	.	.	.	.	.	.
16ff\L	.	.	.	.	.	8E-\	.	.	.	.	.	.	.	.	.
16ee-\	.	.	.	.	.	.	.	.	.	.	.	.	.	.	.
16dd\	.	.	.	8A/	die	8F\J	.	.	.	.	.	.	.	.	.
16cc\JJ	.	.	.	.	.	.	.	.	.	.	.	.	.	.	.
=112	=112	=112	=112	=112	=112	=112	=112	=112	=112	=112	=112	=112	=112	=112	=112
[4.dd\	.	8a/L]	.	[4.B-\	Wahr-	8BB-/L	.	2.r	.	2.r	.	2.r	.	2.r	.
.	.	16b-/L	.	.	.	8C/	.	.	.	.	.	.	.	.	.
.	.	16a/	.	.	.	.	.	.	.	.	.	.	.	.	.
.	.	16g/	.	.	.	8D/J	.	.	.	.	.	.	.	.	.
.	.	16f#/J	.	.	.	.	.	.	.	.	.	.	.	.	.
8dd/L]	.	8g/J	.	8B-\L]	.	[4.E-\	.	.	.	.	.	.	.	.	.
16cc/L	.	8a/	-ben,	8c\J	.	.	.	.	.	.	.	.	.	.	.
16b-/	.	.	.	.	.	.	.	.	.	.	.	.	.	.	.
16a/	.	8b-\	die	8d\	-heit	.	.	.	.	.	.	.	.	.	.
16g/JJ	.	.	.	.	.	.	.	.	.	.	.	.	.	.	.
=113	=113	=113	=113	=113	=113	=113	=113	=113	=113	=113	=113	=113	=113	=113	=113
16a/LL	.	[4.cc\	Wahr-	4e-\	und	8E-\L]	.	2.r	.	2.r	.	2.r	.	2.r	.
16b-/	.	.	.	.	.	.	.	.	.	.	.	.	.	.	.
16a/	.	.	.	.	.	16F\L	.	.	.	.	.	.	.	.	.
16g/	.	.	.	.	.	16E-\	.	.	.	.	.	.	.	.	.
16f#/	.	.	.	8e-\	das	16D\	.	.	.	.	.	.	.	.	.
16a/JJ	.	.	.	.	.	16C\JJ	.	.	.	.	.	.	.	.	.
8d/L	.	8cc\L]	.	(8A\L	Le-	8F#\L	.	.	.	.	.	.	.	.	.
8dd/J	.	8a\J	.	8d\	.	16G\L	.	.	.	.	.	.	.	.	.
.	.	.	.	.	.	16F#\	.	.	.	.	.	.	.	.	.
8dd\	-ben,	8dd\	-heit	8f#\J	.	16E\	.	.	.	.	.	.	.	.	.
.	.	.	.	.	.	16D\JJ	.	.	.	.	.	.	.	.	.
=114	=114	=114	=114	=114	=114	=114	=114	=114	=114	=114	=114	=114	=114	=114	=114
8dd\L	und	8b-/L	und	8g\)	.	4G\	-ben,	2.r	.	4r	.	4r	.	4r	.
8cc\J	.	8a/J	.	8d\	-ben,	.	.	.	.	.	.	.	.	.	.
8b-\	das	8g/	das	8e-\	das	8C/	das	.	.	8r	.	8r	.	8r	.
8b-\L	Le-	8g/L	Le-	4.d\	Le-	4.D\	Le-	.	.	8r	.	8r	.	8r	.
8cc\	.	16f#/L	.	.	.	.	.	.	.	8r	.	8r	.	8r	.
.	.	16e/J	.	.	.	.	.	.	.	.	.	.	.	.	.
8a\J	.	8f#/J	.	.	.	.	.	.	.	8dd\	du	8f#\	du	8D\	du
=115	=115	=115	=115	=115	=115	=115	=115	=115	=115	=115	=115	=115	=115	=115	=115
4g/	-ben,	4g/	-ben,	4d\	-ben,	4GG/	-ben,	8r	.	8b-/L	bist	4d\	bist	8G\L	bist
.	.	.	.	.	.	.	.	8r	.	8a/J	.	.	.	8F#\J	.
8r	.	8r	.	8r	.	8r	.	8gg\	du	8b-\	der	8d\	der	8G\	der
4r	.	4r	.	4r	.	4r	.	4ee-\	bist	8b-\L	rech-	4c\	rech-	8C/L	rech-
.	.	.	.	.	.	.	.	.	.	8dd\J	.	.	.	8D/J	.
8r	.	8r	.	8r	.	8r	.	8ee-\	der	8cc\	-te	8c\	-te	8E-\	-te
=116	=116	=116	=116	=116	=116	=116	=116	=116	=116	=116	=116	=116	=116	=116	=116
2.r	.	2.r	.	2.r	.	2.r	.	8ee-\L	rech-	[4.a/	Weg,	4c\	Weg,	8F\L	Weg,
.	.	.	.	.	.	.	.	8gg\J	.	.	.	.	.	8E-\J	.
.	.	.	.	.	.	.	.	8ff\	-te	.	.	8f\	der	8F\	die
.	.	.	.	.	.	.	.	[4.dd\	Weg,	4a/]	.	4f\	rech-	8BB-/L	Wahr-
.	.	.	.	.	.	.	.	.	.	.	.	.	.	8C/J	.
.	.	.	.	.	.	.	.	.	.	8b-\	die	8f\	-te	8D\	-heit
=117	=117	=117	=117	=117	=117	=117	=117	=117	=117	=117	=117	=117	=117	=117	=117
2.r	.	2.r	.	2.r	.	2.r	.	4dd\]	.	8g/L	Wahr-	[4.e-\	Weg,	8E-\L	und
.	.	.	.	.	.	.	.	.	.	8f#/J	.	.	.	8D\J	.
.	.	.	.	.	.	.	.	8dd\	die	8g/	-heit	.	.	8E-\	das
.	.	.	.	.	.	.	.	8cc\L	Wahr-	4cc\	und	4e-\]	.	8AA/L	Le-
.	.	.	.	.	.	.	.	8dd\J	.	.	.	.	.	8BB-/	.
.	.	.	.	.	.	.	.	8ee-\	-heit	8cc\	das	8A/	die	8C/J	.
=118	=118	=118	=118	=118	=118	=118	=118	=118	=118	=118	=118	=118	=118	=118	=118
2.r	.	2.r	.	2.r	.	2.r	.	4f#/	und	8cc\L	Le-	8A/L	Wahr-	8D\L	.
.	.	.	.	.	.	.	.	.	.	16dd\L	.	8G/J	.	8E\	.
.	.	.	.	.	.	.	.	.	.	16cc\	.	.	.	.	.
.	.	.	.	.	.	.	.	8dd\	das	16b-\	.	8c\	-heit	8F#\J	.
.	.	.	.	.	.	.	.	.	.	16a\JJ	.	.	.	.	.
.	.	.	.	.	.	.	.	16gg\LL	Le-	[4.b-\	.	8B-\L	und	8G\L	.
.	.	.	.	.	.	.	.	16aa\	.	.	.	.	.	.	.
.	.	.	.	.	.	.	.	16gg\	.	.	.	8d\J	.	8F#\	.
.	.	.	.	.	.	.	.	16ff\	.	.	.	.	.	.	.
.	.	.	.	.	.	.	.	16ee-\	.	.	.	8g\	das	8G\J	.
.	.	.	.	.	.	.	.	16dd\JJ	.	.	.	.	.	.	.
=119	=119	=119	=119	=119	=119	=119	=119	=119	=119	=119	=119	=119	=119	=119	=119
2.r	.	2.r	.	2.r	.	2.r	.	[4.ee-\	.	8b-/L]	.	8g\L	Le-	8C\L	.
.	.	.	.	.	.	.	.	.	.	16cc/L	.	8f\	.	8D\	.
.	.	.	.	.	.	.	.	.	.	16b-/	.	.	.	.	.
.	.	.	.	.	.	.	.	.	.	16a/	.	8g\J	.	8E-\J	.
.	.	.	.	.	.	.	.	.	.	16g/JJ	.	.	.	.	.
.	.	.	.	.	.	.	.	8ee-\L]	.	[4.a/	.	4f\	-ben,	8F\L	.
.	.	.	.	.	.	.	.	16ff\L	.	.	.	.	.	8E-\	.
.	.	.	.	.	.	.	.	16ee-\	.	.	.	.	.	.	.
.	.	.	.	.	.	.	.	16dd\	.	.	.	8A/	die	8F\J	.
.	.	.	.	.	.	.	.	16cc\JJ	.	.	.	.	.	.	.
=120	=120	=120	=120	=120	=120	=120	=120	=120	=120	=120	=120	=120	=120	=120	=120
2.r	.	2.r	.	2.r	.	2.r	.	[4.dd\	.	8a/L]	.	[4.B-\	Wahr-	8BB-/L	.
.	.	.	.	.	.	.	.	.	.	16b-/L	.	.	.	8C/	.
.	.	.	.	.	.	.	.	.	.	16a/	.	.	.	.	.
.	.	.	.	.	.	.	.	.	.	16g/	.	.	.	8D/J	.
.	.	.	.	.	.	.	.	.	.	16f#/J	.	.	.	.	.
.	.	.	.	.	.	.	.	8dd\L]	.	8g/J	.	8B-\L]	.	[4.E-\	.
.	.	.	.	.	.	.	.	16cc\L	.	8a/	-ben,	8c\J	.	.	.
.	.	.	.	.	.	.	.	16b-\	.	.	.	.	.	.	.
.	.	.	.	.	.	.	.	16a\	.	8b-\	die	8d\	-heit	.	.
.	.	.	.	.	.	.	.	16g\JJ	.	.	.	.	.	.	.
=121	=121	=121	=121	=121	=121	=121	=121	=121	=121	=121	=121	=121	=121	=121	=121
2.r	.	2.r	.	2.r	.	2.r	.	16a/LL	.	[4.cc\	Wahr-	4e-\	und	8E-\L]	.
.	.	.	.	.	.	.	.	16b-/	.	.	.	.	.	.	.
.	.	.	.	.	.	.	.	16a/	.	.	.	.	.	16F\L	.
.	.	.	.	.	.	.	.	16g/	.	.	.	.	.	16E-\	.
.	.	.	.	.	.	.	.	16f#/	.	.	.	8e-\	das	16D\	.
.	.	.	.	.	.	.	.	16a/JJ	.	.	.	.	.	16C\JJ	.
.	.	.	.	.	.	.	.	8d/L	.	8cc\L]	.	(8A\L	Le-	8F#\L	.
.	.	.	.	.	.	.	.	8dd/J	.	8a\J	.	8d\	.	16G\L	.
.	.	.	.	.	.	.	.	.	.	.	.	.	.	16F#\	.
.	.	.	.	.	.	.	.	8dd\	-ben,	8dd\	-heit	8f#\J	.	16E\	.
.	.	.	.	.	.	.	.	.	.	.	.	.	.	16D\JJ	.
=122	=122	=122	=122	=122	=122	=122	=122	=122	=122	=122	=122	=122	=122	=122	=122
4r	.	4r	.	4r	.	4r	.	8dd\L	und	8b-/L	und	8g\)	.	4G\	-ben,
.	.	.	.	.	.	.	.	8cc\J	.	8a/J	.	8d\	-ben,	.	.
8r	.	8r	.	8r	.	8r	.	8b-\	das	8g/	das	8e-\	das	8C/	das
8r	.	8r	.	8r	.	8r	.	8b-/L	Le-	8g/L	Le-	4.d\	Le-	4.D\	Le-
8r	.	8r	.	8r	.	8r	.	8cc/	.	16f#/L	.	.	.	.	.
.	.	.	.	.	.	.	.	.	.	16e/J	.	.	.	.	.
8dd\	du	8a/	du	8d\	du	8D\	du	8a/J	.	8f#/J	.	.	.	.	.
=123	=123	=123	=123	=123	=123	=123	=123	=123	=123	=123	=123	=123	=123	=123	=123
8b-/L	bist	8g/L	bist	8d\L	bist	4G\	bist	4g/	-ben,	4g/	-ben,	4d\	-ben,	4GG/	-ben,
8g/J	.	8d/J	.	8B-\J	.	.	.	.	.	.	.	.	.	.	.
8f#/	der	8d/	der	8c\	der	8A\	der	8r	.	8r	.	8r	.	8r	.
16g/LL	rech-	4g/	rech-	8d\L	rech-	8B-\L	rech-	8r	.	8r	.	8r	.	8r	.
16a/JJ	.	.	.	.	.	.	.	.	.	.	.	.	.	.	.
8.aT/Lxx	-te	.	.	8e-\J	.	8c\J	.	8r	.	8r	.	8r	.	8r	.
.	.	8f#/	-te	8d\	-te	8d\	-te	8dd\	du	8a/	du	8d\	du	8D\	du
32g/LL	.	.	.	.	.	.	.	.	.	.	.	.	.	.	.
32a/JJJ	.	.	.	.	.	.	.	.	.	.	.	.	.	.	.
=124	=124	=124	=124	=124	=124	=124	=124	=124	=124	=124	=124	=124	=124	=124	=124
4b-\	Weg,	4g/	Weg,	4d\	Weg,	4G\	Weg,	8b-/L	bist	8g/L	bist	8d\L	bist	4G\	bist
.	.	.	.	.	.	.	.	8g/J	.	8d/J	.	8B-\J	.	.	.
8r	.	8r	.	8r	.	8r	.	8f#/	der	8d/	der	8c\	der	8A\	der
8r	.	8r	.	8r	.	8r	.	16g/LL	rech-	4g/	rech-	8d\L	rech-	8B-\L	rech-
.	.	.	.	.	.	.	.	16a/JJ	.	.	.	.	.	.	.
8r	.	8r	.	8r	.	8r	.	8.aT/Lxx	-te	.	.	8e-\J	.	8c\J	.
8dd\	die	8a/	die	8d\	die	8D\	die	.	.	8f#/	-te	8d\	-te	8d\	-te
.	.	.	.	.	.	.	.	32g/LL	.	.	.	.	.	.	.
.	.	.	.	.	.	.	.	32a/JJJ	.	.	.	.	.	.	.
=125	=125	=125	=125	=125	=125	=125	=125	=125	=125	=125	=125	=125	=125	=125	=125
8b-/L	Wahr-	8g/L	Wahr-	8d\L	Wahr-	8G\L	Wahr-	4b-\	Weg,	4g/	Weg,	4d\	Weg,	4G\	Weg,
8a/J	.	8f/J	.	8c\J	.	8A\J	.	.	.	.	.	.	.	.	.
8g/	-heit	8e/	-heit	8c\	-heit	8B-\	-heit	8r	.	8r	.	8r	.	8r	.
8cc\L	und	8f/L	und	4c\	und	8A\L	und	4r	.	4r	.	4r	.	4r	.
8ee\J	.	8b-/J	.	.	.	8G\J	.	.	.	.	.	.	.	.	.
8ff\	das	8a/	das	8c\	das	8F\	das	8r	.	8r	.	8r	.	8r	.
=126	=126	=126	=126	=126	=126	=126	=126	=126	=126	=126	=126	=126	=126	=126	=126
16ee\LL	Le-	8g/L	Le-	4.c\	Le-	4.c\	Le-	4r	.	4r	.	4r	.	4r	.
16gg\	.	.	.	.	.	.	.	.	.	.	.	.	.	.	.
16ff\	.	16a/L	.	.	.	.	.	.	.	.	.	.	.	.	.
16ee\	.	16g/	.	.	.	.	.	.	.	.	.	.	.	.	.
16ddt\	.	16f/	.	.	.	.	.	8r	.	8r	.	8r	.	8r	.
16cc\JJ	.	16e/JJ	.	.	.	.	.	.	.	.	.	.	.	.	.
4cc\	-ben,	4e/	-ben,	4G/	-ben,	4C/	-ben,	8r	.	8r	.	8r	.	8r	.
.	.	.	.	.	.	.	.	8r	.	8r	.	8r	.	8r	.
8r	.	8r	.	8r	.	8r	.	8cc\	die	8g/	die	8c\	die	8E\	die
=127	=127	=127	=127	=127	=127	=127	=127	=127	=127	=127	=127	=127	=127	=127	=127
2.r	.	2.r	.	2.r	.	2.r	.	8a\L	Wahr-	8f/L	Wahr-	8c\L	Wahr-	4F\	Wahr-
.	.	.	.	.	.	.	.	8dd\J	.	8a/J	.	8d\J	.	.	.
.	.	.	.	.	.	.	.	8cc#\	-heit	8g/	-heit	8e\	-heit	8E\	-heit
.	.	.	.	.	.	.	.	8dd\L	und	4a/	und	4d\	und	8F\L	und
.	.	.	.	.	.	.	.	8ee\J	.	.	.	.	.	8E\J	.
.	.	.	.	.	.	.	.	8ff\	das	8a/	das	8d\	das	8D\	das
=128	=128	=128	=128	=128	=128	=128	=128	=128	=128	=128	=128	=128	=128	=128	=128
2.r	.	2.r	.	4r	.	4r	.	8ee\L	Le-	4.a/	Le-	8c#\L	Le-	4.A\	Le-
.	.	.	.	.	.	.	.	16dd\L	.	.	.	16f\L	.	.	.
.	.	.	.	.	.	.	.	16cc#\	.	.	.	16e\	.	.	.
.	.	.	.	8r	.	8r	.	16b\	.	.	.	16d\	.	.	.
.	.	.	.	.	.	.	.	16a\JJ	.	.	.	16c#\JJ	.	.	.
.	.	.	.	8r	.	8r	.	4a/	-ben,	4e/	-ben,	4c#\	-ben,	4AA/	-ben,
.	.	.	.	8r	.	8r	.	.	.	.	.	.	.	.	.
.	.	.	.	8a\	du	8c#\	du	8r	.	8r	.	8r	.	8r	.
=129	=129	=129	=129	=129	=129	=129	=129	=129	=129	=129	=129	=129	=129	=129	=129
2.r	.	8r	.	8f\L	bist	8d\L	bist	2.r	.	2.r	.	2.r	.	2.r	.
.	.	8r	.	8e\J	.	8c#\J	.	.	.	.	.	.	.	.	.
.	.	8dd\	du	8f\	der	8d\	der	.	.	.	.	.	.	.	.
.	.	4b-\	bist	8f\L	rech-	8G\L	rech-	.	.	.	.	.	.	.	.
.	.	.	.	8a\J	.	8A\J	.	.	.	.	.	.	.	.	.
.	.	8b-\	der	8g\	-te	8B-\	-te	.	.	.	.	.	.	.	.
=130	=130	=130	=130	=130	=130	=130	=130	=130	=130	=130	=130	=130	=130	=130	=130
4r	.	8b-\L	rech-	[4.e\	Weg,	8c\L	Weg,	2.r	.	2.r	.	2.r	.	2.r	.
.	.	8dd\J	.	.	.	8B-\J	.	.	.	.	.	.	.	.	.
8r	.	8cc\	-te	.	.	8c\	die	.	.	.	.	.	.	.	.
8r	.	[4.a/	Weg,	8e\L]	.	8F\L	Wahr-	.	.	.	.	.	.	.	.
8r	.	.	.	8d\J	.	8G\J	.	.	.	.	.	.	.	.	.
8ff\	du	.	.	8c#\	die	8A\	-heit	.	.	.	.	.	.	.	.
=131	=131	=131	=131	=131	=131	=131	=131	=131	=131	=131	=131	=131	=131	=131	=131
8dd\L	bist	4a/]	.	16d\LL	Wahr-	8B-\L	und	2.r	.	2.r	.	2.r	.	2.r	.
.	.	.	.	16e\J	.	.	.	.	.	.	.	.	.	.	.
8cc#\J	.	.	.	8f\J	.	8A\J	.	.	.	.	.	.	.	.	.
8dd\	der	8a/	die	8f\	-heit	8B-\	das	.	.	.	.	.	.	.	.
8dd\L	rech-	8g/L	Wahr-	8e\L	und	8E\L	Le-	.	.	.	.	.	.	.	.
8ff\J	.	8a/J	.	8d\J	.	8F\	.	.	.	.	.	.	.	.	.
8ee\	-te	8b-\	-heit	8g\	das	8G\J	.	.	.	.	.	.	.	.	.
=132	=132	=132	=132	=132	=132	=132	=132	=132	=132	=132	=132	=132	=132	=132	=132
8cc#\L	Weg,	4a/	und	8g\L	Le-	8A\L	.	2.r	.	2.r	.	2.r	.	2.r	.
8dd\J	.	.	.	16a\L	.	8B\	.	.	.	.	.	.	.	.	.
.	.	.	.	16g\	.	.	.	.	.	.	.	.	.	.	.
8ee\	die	8a/	das	16f\	.	8c#\J	.	.	.	.	.	.	.	.	.
.	.	.	.	16e\JJ	.	.	.	.	.	.	.	.	.	.	.
4ff\	Wahr-	8a/L	Le-	[4.d\	.	8d\L	.	.	.	.	.	.	.	.	.
.	.	16b-/L	.	.	.	8c#\	.	.	.	.	.	.	.	.	.
.	.	16a/	.	.	.	.	.	.	.	.	.	.	.	.	.
8ff\	-heit	16g/	.	.	.	8d\J	.	.	.	.	.	.	.	.	.
.	.	16f/JJ	.	.	.	.	.	.	.	.	.	.	.	.	.
=133	=133	=133	=133	=133	=133	=133	=133	=133	=133	=133	=133	=133	=133	=133	=133
8ff\L	und	[4.b-\	.	4.d\]	.	8G\L	.	2.r	.	2.r	.	2.r	.	2.r	.
16gg\L	.	.	.	.	.	8A\	.	.	.	.	.	.	.	.	.
16ff\JJ	.	.	.	.	.	.	.	.	.	.	.	.	.	.	.
16ee\LL	das	.	.	.	.	8B-\J	.	.	.	.	.	.	.	.	.
16dd\JJ	.	.	.	.	.	.	.	.	.	.	.	.	.	.	.
[4.ee\	Le-	8b-/L]	.	4c\	-ben,	8c\L	.	.	.	.	.	.	.	.	.
.	.	16cc/L	.	.	.	8B-\	.	.	.	.	.	.	.	.	.
.	.	16b-/	.	.	.	.	.	.	.	.	.	.	.	.	.
.	.	16a/	.	8e\	die	8c\J	.	.	.	.	.	.	.	.	.
.	.	16g/JJ	.	.	.	.	.	.	.	.	.	.	.	.	.
=134	=134	=134	=134	=134	=134	=134	=134	=134	=134	=134	=134	=134	=134	=134	=134
8ee\L]	.	[4.a/	.	[4.f\	Wahr-	8F\L	.	2.r	.	2.r	.	2.r	.	2.r	.
16ff\L	.	.	.	.	.	8G\	.	.	.	.	.	.	.	.	.
16ee\	.	.	.	.	.	.	.	.	.	.	.	.	.	.	.
16dd\	.	.	.	.	.	8A\J	.	.	.	.	.	.	.	.	.
16cc#\J	.	.	.	.	.	.	.	.	.	.	.	.	.	.	.
8dd\J	.	8a/L]	.	8f\L]	.	[4.B-\	.	.	.	.	.	.	.	.	.
8ee\	-ben,	16b-/L	.	16g\L	.	.	.	.	.	.	.	.	.	.	.
.	.	16a/	.	16f\	.	.	.	.	.	.	.	.	.	.	.
8ff\	die	16g/	.	16e\	.	.	.	.	.	.	.	.	.	.	.
.	.	16f/JJ	.	16d\JJ	.	.	.	.	.	.	.	.	.	.	.
=135	=135	=135	=135	=135	=135	=135	=135	=135	=135	=135	=135	=135	=135	=135	=135
[4.gg\	Wahr-	8dd\L	.	[4.e\	.	8B-\L]	.	2.r	.	2.r	.	2.r	.	2.r	.
.	.	16ee\L	.	.	.	16c\L	.	.	.	.	.	.	.	.	.
.	.	16dd\	.	.	.	16B-\	.	.	.	.	.	.	.	.	.
.	.	16cc#\	.	.	.	16A\	.	.	.	.	.	.	.	.	.
.	.	16b\JJ	.	.	.	16G\JJ	.	.	.	.	.	.	.	.	.
8gg\L]	.	8a/L	.	16e\LL]	.	8c#\L	.	.	.	.	.	.	.	.	.
.	.	.	.	16f\J	.	.	.	.	.	.	.	.	.	.	.
8ee\J	.	8b-/J	.	8g\J	.	16d\L	.	.	.	.	.	.	.	.	.
.	.	.	.	.	.	16c#\	.	.	.	.	.	.	.	.	.
8aa\	-heit	8a/	-ben,	8c#\	-heit	16B\	.	.	.	.	.	.	.	.	.
.	.	.	.	.	.	16A\JJ	.	.	.	.	.	.	.	.	.
=136	=136	=136	=136	=136	=136	=136	=136	=136	=136	=136	=136	=136	=136	=136	=136
8ff\L	und	4a/	und	8d\L	und	4d\	-ben,	2.r	.	2.r	.	4r	.	4r	.
8ee\J	.	.	.	8e\J	.	.	.	.	.	.	.	.	.	.	.
8dd\	das	8b-\	das	8f\	das	8G\	das	.	.	.	.	8r	.	8r	.
8dd\L	Le-	4.a/	Le-	8f\L	Le-	4.A\	Le-	.	.	.	.	8r	.	8r	.
16cc#\L	.	.	.	16e\L	.	.	.	.	.	.	.	8r	.	8r	.
16b\J	.	.	.	16d\J	.	.	.	.	.	.	.	.	.	.	.
8cc#\J	.	.	.	8e\J	.	.	.	.	.	.	.	8a\	du	8A\	du
=137	=137	=137	=137	=137	=137	=137	=137	=137	=137	=137	=137	=137	=137	=137	=137
4dd\	-ben,	4a/	-ben,	4f\	-ben,	4D\	-ben,	2.r	.	8r	.	8f\L	bist	8d\L	bist
.	.	.	.	.	.	.	.	.	.	8r	.	8e\J	.	8c#\J	.
8r	.	8r	.	8r	.	8r	.	.	.	8dd\	du	8f\	der	8d\	der
4r	.	4r	.	4r	.	4r	.	.	.	4b-\	bist	8f\L	rech-	8G\L	rech-
.	.	.	.	.	.	.	.	.	.	.	.	8a\J	.	8A\J	.
8r	.	8r	.	8r	.	8r	.	.	.	8b-\	der	8g\	-te	8B-\	-te
=138	=138	=138	=138	=138	=138	=138	=138	=138	=138	=138	=138	=138	=138	=138	=138
2.r	.	2.r	.	2.r	.	2.r	.	4r	.	8b-\L	rech-	[4.e\	Weg,	8c\L	Weg,
.	.	.	.	.	.	.	.	.	.	8dd\J	.	.	.	8B-\J	.
.	.	.	.	.	.	.	.	8r	.	8cc\	-te	.	.	8c\	die
.	.	.	.	.	.	.	.	8r	.	[4.a/	Weg,	8e\L]	.	8F\L	Wahr-
.	.	.	.	.	.	.	.	8r	.	.	.	8d\J	.	8G\J	.
.	.	.	.	.	.	.	.	8ff\	du	.	.	8c#\	die	8A\	-heit
=139	=139	=139	=139	=139	=139	=139	=139	=139	=139	=139	=139	=139	=139	=139	=139
2.r	.	2.r	.	2.r	.	2.r	.	8dd\L	bist	4a/]	.	16d\LL	Wahr-	8B-\L	und
.	.	.	.	.	.	.	.	.	.	.	.	16e\J	.	.	.
.	.	.	.	.	.	.	.	8cc#\J	.	.	.	8f\J	.	8A\J	.
.	.	.	.	.	.	.	.	8dd\	der	8a/	die	8f\	-heit	8B-\	das
.	.	.	.	.	.	.	.	8dd\L	rech-	8g/L	Wahr-	8e\L	und	8E\L	Le-
.	.	.	.	.	.	.	.	8ff\J	.	8a/J	.	8d\J	.	8F\	.
.	.	.	.	.	.	.	.	8ee\	-te	8b-\	-heit	8g\	das	8G\J	.
=140	=140	=140	=140	=140	=140	=140	=140	=140	=140	=140	=140	=140	=140	=140	=140
2.r	.	2.r	.	2.r	.	2.r	.	8cc#\L	Weg,	4a/	und	8g\L	Le-	8A\L	.
.	.	.	.	.	.	.	.	8dd\J	.	.	.	16a\L	.	8B\	.
.	.	.	.	.	.	.	.	.	.	.	.	16g\	.	.	.
.	.	.	.	.	.	.	.	8ee\	die	8a/	das	16f\	.	8c#\J	.
.	.	.	.	.	.	.	.	.	.	.	.	16e\JJ	.	.	.
.	.	.	.	.	.	.	.	4ff\	Wahr-	8a/L	Le-	[4.d\	.	8d\L	.
.	.	.	.	.	.	.	.	.	.	16b-/L	.	.	.	8c#\	.
.	.	.	.	.	.	.	.	.	.	16a/	.	.	.	.	.
.	.	.	.	.	.	.	.	8ff\	-heit	16g/	.	.	.	8d\J	.
.	.	.	.	.	.	.	.	.	.	16f/JJ	.	.	.	.	.
=141	=141	=141	=141	=141	=141	=141	=141	=141	=141	=141	=141	=141	=141	=141	=141
2.r	.	2.r	.	2.r	.	2.r	.	8ff\L	und	[4.b-\	.	4.d\]	.	8G\L	.
.	.	.	.	.	.	.	.	16gg\L	.	.	.	.	.	8A\	.
.	.	.	.	.	.	.	.	16ff\JJ	.	.	.	.	.	.	.
.	.	.	.	.	.	.	.	16ee\LL	das	.	.	.	.	8B-\J	.
.	.	.	.	.	.	.	.	16dd\JJ	.	.	.	.	.	.	.
.	.	.	.	.	.	.	.	[4.ee\	Le-	8b-/L]	.	4c\	-ben,	8c\L	.
.	.	.	.	.	.	.	.	.	.	16cc/L	.	.	.	8B-\	.
.	.	.	.	.	.	.	.	.	.	16b-/	.	.	.	.	.
.	.	.	.	.	.	.	.	.	.	16a/	.	8e\	die	8c\J	.
.	.	.	.	.	.	.	.	.	.	16g/JJ	.	.	.	.	.
=142	=142	=142	=142	=142	=142	=142	=142	=142	=142	=142	=142	=142	=142	=142	=142
2.r	.	2.r	.	2.r	.	2.r	.	8ee\L]	.	[4.a/	.	[4.f\	Wahr-	8F\L	.
.	.	.	.	.	.	.	.	16ff\L	.	.	.	.	.	8G\	.
.	.	.	.	.	.	.	.	16ee\	.	.	.	.	.	.	.
.	.	.	.	.	.	.	.	16dd\	.	.	.	.	.	8A\J	.
.	.	.	.	.	.	.	.	16cc#\J	.	.	.	.	.	.	.
.	.	.	.	.	.	.	.	8dd\J	.	8a/L]	.	8f\L]	.	[4.B-\	.
.	.	.	.	.	.	.	.	8ee\	-ben,	16b-/L	.	16g\L	.	.	.
.	.	.	.	.	.	.	.	.	.	16a/	.	16f\	.	.	.
.	.	.	.	.	.	.	.	8ff\	die	16g/	.	16e\	.	.	.
.	.	.	.	.	.	.	.	.	.	16f/JJ	.	16d\JJ	.	.	.
=143	=143	=143	=143	=143	=143	=143	=143	=143	=143	=143	=143	=143	=143	=143	=143
2.r	.	2.r	.	2.r	.	2.r	.	[4.gg\	Wahr-	8dd\L	.	[4.e\	.	8B-\L]	.
.	.	.	.	.	.	.	.	.	.	16ee\L	.	.	.	16c\L	.
.	.	.	.	.	.	.	.	.	.	16dd\	.	.	.	16B-\	.
.	.	.	.	.	.	.	.	.	.	16cc#\	.	.	.	16A\	.
.	.	.	.	.	.	.	.	.	.	16b\JJ	.	.	.	16G\JJ	.
.	.	.	.	.	.	.	.	8gg\L]	.	8a/L	.	16e\LL]	.	8c#\L	.
.	.	.	.	.	.	.	.	.	.	.	.	16f\J	.	.	.
.	.	.	.	.	.	.	.	8ee\J	.	8b-/J	.	8g\J	.	16d\L	.
.	.	.	.	.	.	.	.	.	.	.	.	.	.	16c#\	.
.	.	.	.	.	.	.	.	8aa\	-heit	8a/	-ben,	8c#\	-heit	16B\	.
.	.	.	.	.	.	.	.	.	.	.	.	.	.	16A\JJ	.
=144	=144	=144	=144	=144	=144	=144	=144	=144	=144	=144	=144	=144	=144	=144	=144
4r	.	4r	.	4r	.	4r	.	8ff\L	und	4a/	und	8d\L	und	4d\	-ben,
.	.	.	.	.	.	.	.	8ee\J	.	.	.	8e\J	.	.	.
8r	.	8r	.	8r	.	8r	.	8dd\	das	8b-\	das	8f\	das	8G\	das
8r	.	8r	.	8r	.	8r	.	8dd\L	Le-	4.a/	Le-	8f\L	Le-	4.A\	Le-
8r	.	8r	.	8r	.	8r	.	16cc#\L	.	.	.	16e\L	.	.	.
.	.	.	.	.	.	.	.	16b\J	.	.	.	16d\J	.	.	.
8aa\	du	8cc#\	du	8e\	du	8A\	du	8cc#\J	.	.	.	8e\J	.	.	.
=145	=145	=145	=145	=145	=145	=145	=145	=145	=145	=145	=145	=145	=145	=145	=145
4ff\	bist	4a/	bist	8f\L	bist	8d\L	bist	4dd\	-ben,	4a/	-ben,	4d\	-ben,	4D\	-ben,
.	.	.	.	8e\J	.	8c#\J	.	.	.	.	.	.	.	.	.
8ff\	der	8a/	der	8f\	der	8d\	der	8r	.	8r	.	8r	.	8r	.
8ff\L	rech-	8b/L	rech-	8d\L	rech-	8G\L	rech-	8r	.	8r	.	8r	.	8r	.
16gg\L	.	8a/J	.	8c\J	.	8A\J	.	8r	.	8r	.	8r	.	8r	.
16ff\JJ	.	.	.	.	.	.	.	.	.	.	.	.	.	.	.
16ee-\LL	-te	8g/	-te	8d\	-te	8B\	-te	8gg\	du	8b\	du	8d\	du	8G\	du
16dd\JJ	.	.	.	.	.	.	.	.	.	.	.	.	.	.	.
=146	=146	=146	=146	=146	=146	=146	=146	=146	=146	=146	=146	=146	=146	=146	=146
4ee-\	Weg,	4g/	Weg,	4c\	Weg,	4c\	Weg,	4ee-\	bist	4g/	bist	8c\L	bist	8c\L	bist
.	.	.	.	.	.	.	.	.	.	.	.	8d\J	.	8B\J	.
8r	.	8r	.	8r	.	8r	.	8ee-\	der	8g/	der	8e-\	der	8c\	der
8r	.	8r	.	8r	.	8r	.	8ee-\L	rech-	8a/L	rech-	8c\L	rech-	8F\L	rech-
8r	.	8r	.	8r	.	8r	.	16ff\L	.	8g/J	.	8B-\J	.	8G\J	.
.	.	.	.	.	.	.	.	16ee-\JJ	.	.	.	.	.	.	.
8a/	die	8f/	die	8c\	die	8F\	die	16dd\LL	-te	8f/	-te	8c\	-te	8A\	-te
.	.	.	.	.	.	.	.	16cc\JJ	.	.	.	.	.	.	.
=147	=147	=147	=147	=147	=147	=147	=147	=147	=147	=147	=147	=147	=147	=147	=147
8dd\L	Wahr-	4f/	Wahr-	8B-/L	Wahr-	4B-\	Wahr-	4dd\	Weg,	4f/	Weg,	4B-\	Weg,	4B-\	Weg,
8cc\J	.	.	.	8A/J	.	.	.	.	.	.	.	.	.	.	.
8dd\	-heit	8f/	-heit	8B-\	-heit	8B-\	-heit	8r	.	8r	.	8r	.	8r	.
8g/L	und	8e/L	und	4c\	und	8B-\L	und	4r	.	4r	.	4r	.	4r	.
8a/J	.	8f#/J	.	.	.	16c\L	.	.	.	.	.	.	.	.	.
.	.	.	.	.	.	16B-\JJ	.	.	.	.	.	.	.	.	.
8b-\	das	8g/	das	8d\	das	16A\LL	das	8r	.	8r	.	8r	.	8r	.
.	.	.	.	.	.	16G\JJ	.	.	.	.	.	.	.	.	.
=148	=148	=148	=148	=148	=148	=148	=148	=148	=148	=148	=148	=148	=148	=148	=148
[4.cc\	Le-	[4.f#/	Le-	8c\L	Le-	8A\L	Le-	4r	.	4r	.	4r	.	4r	.
.	.	.	.	16e-\L	.	8G\	.	.	.	.	.	.	.	.	.
.	.	.	.	16d\	.	.	.	.	.	.	.	.	.	.	.
.	.	.	.	16c\	.	8A\J	.	8r	.	8r	.	8r	.	8r	.
.	.	.	.	16B-\JJ	.	.	.	.	.	.	.	.	.	.	.
8cc\L]	.	8f#/L]	.	8A/L	.	8D\L	.	8r	.	8r	.	8r	.	8r	.
16dd\L	.	8e/	.	8G/	.	8E\	.	8r	.	8r	.	8r	.	8r	.
16cc\	.	.	.	.	.	.	.	.	.	.	.	.	.	.	.
16b-\	.	8d/J	.	8A/J	.	8F#\J	.	8dd\	die	8f#/	die	8d\	die	8D\	die
16a\JJ	.	.	.	.	.	.	.	.	.	.	.	.	.	.	.
=149	=149	=149	=149	=149	=149	=149	=149	=149	=149	=149	=149	=149	=149	=149	=149
8b-\L	.	4d/	-ben,	4G/	-ben,	4G\	.	8b-/L	Wahr-	4d/	Wahr-	8d\L	Wahr-	4G\	Wahr-
8cc\	.	.	.	.	.	.	.	8a/J	.	.	.	8c\J	.	.	.
8dd\J	.	8b-\	die	8d\	der	8G\	-ben,	8b-\	-heit	8d/	-heit	8B-\	-heit	8G\	-heit
8ee-\L	.	8b-/L	Wahr-	[4.c\	rech-	8C/L	und	4ee-\	und	4g/	und	4c\	und	8G\L	und
8ff\	.	16cc/L	.	.	.	8D/J	.	.	.	.	.	.	.	16A-\L	.
.	.	16b-/	.	.	.	.	.	.	.	.	.	.	.	16G\JJ	.
8gg\J	.	16a-/	.	.	.	8E-\	das	8ee-\	das	8g/	das	8c\	das	16F\LL	das
.	.	16g/JJ	.	.	.	.	.	.	.	.	.	.	.	16E-\JJ	.
=150	=150	=150	=150	=150	=150	=150	=150	=150	=150	=150	=150	=150	=150	=150	=150
[4.aa-\	.	8f/L	.	8c\L]	.	[4.F\	Le-	8ee-\L	Le-	2.f/	Le-	8A-/L	Le-	8F\L	Le-
.	.	8g/	.	16d\L	.	.	.	16ff\L	.	.	.	8G/	.	8E-\	.
.	.	.	.	16c\	.	.	.	16ee-\	.	.	.	.	.	.	.
.	.	8a-/J	.	16B-\	.	.	.	16dd\	.	.	.	8F/J	.	8F\J	.
.	.	.	.	16A-\JJ	.	.	.	16cc\JJ	.	.	.	.	.	.	.
8aa-\L]	.	[4.b-\	.	4f\	.	16F\LL]	.	[4.dd\	.	.	.	8d\L	.	8BB-/L	.
.	.	.	.	.	.	16A-\	.	.	.	.	.	.	.	.	.
16bb-\L	.	.	.	.	.	16G\	.	.	.	.	.	8e-\	.	8C/	.
16aa-\	.	.	.	.	.	16F\	.	.	.	.	.	.	.	.	.
16gg\	.	.	.	8B-\	-te	16E-\	.	.	.	.	.	8f\J	.	8D/J	.
16ff\JJ	.	.	.	.	.	16D\JJ	.	.	.	.	.	.	.	.	.
=151	=151	=151	=151	=151	=151	=151	=151	=151	=151	=151	=151	=151	=151	=151	=151
[4.gg\	.	8b-/L]	.	4e-\	Weg,	8E-\L	.	8dd\L]	.	2.e-/	.	8B-/L	.	[4.E-\	.
.	.	16cc/L	.	.	.	8D\	.	16ee-\L	.	.	.	8G/J	.	.	.
.	.	16b-/	.	.	.	.	.	16dd\	.	.	.	.	.	.	.
.	.	16a/	.	8e-\	der	8E-\J	.	16cc\	.	.	.	8E-/	-ben,	.	.
.	.	16g/JJ	.	.	.	.	.	16b-\JJ	.	.	.	.	.	.	.
8gg\L]	.	[4.a/	.	4c\	rech-	8AA/L	.	[4.cc\	.	.	.	8r	.	16E-\LL]	.
.	.	.	.	.	.	.	.	.	.	.	.	.	.	16G\	.
16aa\L	.	.	.	.	.	8BB-/	.	.	.	.	.	8r	.	16F\	.
16gg\	.	.	.	.	.	.	.	.	.	.	.	.	.	16E-\	.
16ff\	.	.	.	8c\	-te	8C/J	.	.	.	.	.	8A/	das	16D\	.
16ee-\JJ	.	.	.	.	.	.	.	.	.	.	.	.	.	16C\JJ	.
=152	=152	=152	=152	=152	=152	=152	=152	=152	=152	=152	=152	=152	=152	=152	=152
[4.ff\	.	8a/L]	.	4A/	Weg,	[4.D\	.	8cc\L]	.	2.d/	.	8F/L	Le-	8D/L	.
.	.	16b-/L	.	.	.	.	.	16dd\L	.	.	.	8E-/	.	8C/	.
.	.	16a/	.	.	.	.	.	16cc\	.	.	.	.	.	.	.
.	.	16g/	.	8d\	die	.	.	16b-\	.	.	.	8D/J	.	8D/J	.
.	.	16f/JJ	.	.	.	.	.	16a\JJ	.	.	.	.	.	.	.
8ff\L]	.	[4.g/	.	4B-\	Wahr-	16D\LL]	.	[4.b-\	.	.	.	8B-\L	.	8GG/L	.
.	.	.	.	.	.	16F\	.	.	.	.	.	.	.	.	.
16gg\L	.	.	.	.	.	16E-\	.	.	.	.	.	8c\	.	8AA/	.
16ff\	.	.	.	.	.	16D\	.	.	.	.	.	.	.	.	.
16ee-\	.	.	.	8B-\	-heit	16C\	.	.	.	.	.	8d\J	.	8BB-/J	.
16dd\JJ	.	.	.	.	.	16BB-\JJ	.	.	.	.	.	.	.	.	.
=153	=153	=153	=153	=153	=153	=153	=153	=153	=153	=153	=153	=153	=153	=153	=153
[4.ee-\	.	8g/L]	.	4G/	und	[2.C/	.	8b-/L]	.	2.c/	.	8G/L	.	[2.C/	.
.	.	16a-/L	.	.	.	.	.	16cc/L	.	.	.	8E-/J	.	.	.
.	.	16g/	.	.	.	.	.	16b-/	.	.	.	.	.	.	.
.	.	16f/	.	8c\	das	.	.	16a-/	.	.	.	8C/	-ben,	.	.
.	.	16e-/JJ	.	.	.	.	.	16g/JJ	.	.	.	.	.	.	.
16ee-\LL]	.	16cc\LL	.	8e-\L	Le-	.	.	16a-/LL	.	.	.	8r	.	.	.
16ff\	.	16b-\	.	.	.	.	.	16g/	.	.	.	.	.	.	.
16ee-\	.	16cc\	.	8a-\J	.	.	.	16a-/	.	.	.	8r	.	.	.
16dd\	.	16dd\J	.	.	.	.	.	16b-/	.	.	.	.	.	.	.
16cc\	.	8ee-\J	.	8c\	-ben,	.	.	16a-/	.	.	.	8e-\	die	.	.
16b-\JJ	.	.	.	.	.	.	.	16g/JJ	.	.	.	.	.	.	.
=154	=154	=154	=154	=154	=154	=154	=154	=154	=154	=154	=154	=154	=154	=154	=154
8a/	.	8dd\	.	8f#\	du	16C\LL]	.	8f#/	.	8d/	.	8A\L	Wahr-	16C\LL]	.
.	.	.	.	.	.	16BB-\	.	.	.	.	.	.	.	16BB-\	.
8b-\	-ben,	8g/	-heit,	8d\	bist	16C\	.	8g/	-ben,	8G/	-ben,	8d\J	.	16C\	.
.	.	.	.	.	.	16E-\	.	.	.	.	.	.	.	16E-\	.
8cc\	die	8f#/	die	8A/	die	16D\	.	8a/	die	8d/	die	8f#\	-heit	16D\	.
.	.	.	.	.	.	16C\JJ	.	.	.	.	.	.	.	16C\JJ	.
4dd\	Wahr-	4g/	Wahr-	4B-\	Wahr-	16BB-\LL	.	8d/L	Wahr-	4d/	Wahr-	8G/L	und	16BB-\LL	.
.	.	.	.	.	.	16C\	.	.	.	.	.	.	.	16C\	.
.	.	.	.	.	.	16D\	.	8dd/J	.	.	.	8B-/J	.	16D\	.
.	.	.	.	.	.	16E\	.	.	.	.	.	.	.	16E\	.
8dd\	-heit	8a/	-heit	8A/	-heit	16F#\	.	8cc\	-heit	8d/	-heit	8d\	das	16F#\	.
.	.	.	.	.	.	16D\JJ	.	.	.	.	.	.	.	16D\JJ	.
=155	=155	=155	=155	=155	=155	=155	=155	=155	=155	=155	=155	=155	=155	=155	=155
8dd/L	und	4g/	und	4B-\	und	8G\	.	16b-\LL	und	4d/	und	8G/	Le-	8G\	.
.	.	.	.	.	.	.	.	16cc\J	.	.	.	.	.	.	.
8g/J	.	.	.	.	.	8BB-/	-ben,	8dd\J	.	.	.	8G/	-ben,	8BB-/	-ben,
8ee-\	das	8a/	das	8A/	das	8C/	das	8g/	das	8e-/	das	8G/	das	8C/	das
8b-\L	Le-	8g/L	Le-	8d\L	Le-	8D/L	Le-	4g/	Le-	8d/L	Le-	8B-/L	Le-	8D/L	Le-
8cc\	.	8e-/	.	8A\	.	8C/	.	.	.	8e-/	.	8A/	.	8C/	.
8a\J	.	8d/J	.	8c\J	.	8D/J	.	8f#/	.	8A/J	.	8D/J	.	8D/J	.
=156	=156	=156	=156	=156	=156	=156	=156	=156	=156	=156	=156	=156	=156	=156	=156
4g/	-ben,	4d/	-ben,	4B-\	-ben,	4GG/	-ben,	4g/	-ben,	4B-/	-ben,	4D/	-ben,	4GG/	-ben,
8g/	der	8g/	der	8d\	der	8B\	der	8r	.	8r	.	8r	.	8r	.
8ff\L	rech-	8g/L	rech-	8d\L	rech-	8B\L	rech-	8r	.	8r	.	8r	.	8r	.
16gg\L	.	8a/J	.	8c\J	.	8A\J	.	8r	.	8r	.	8r	.	8r	.
16ff\JJ	.	.	.	.	.	.	.	.	.	.	.	.	.	.	.
16ee-\LL	-te	8b\	-te	8g\	-te	8G\	-te	8gg\	du	8b\	du	8d\	du	8G\	du
16dd\JJ	.	.	.	.	.	.	.	.	.	.	.	.	.	.	.
=157	=157	=157	=157	=157	=157	=157	=157	=157	=157	=157	=157	=157	=157	=157	=157
4ee-\	Weg,	4cc\	Weg,	4c\	Weg,	4c\	Weg,	4ee-\	bist	4g/	bist	8c\L	bist	8c\L	bist
.	.	.	.	.	.	.	.	.	.	.	.	8d\J	.	8B\J	.
8r	.	8r	.	8r	.	8r	.	8ee-\	der	8g/	der	8e-\	der	8c\	der
8r	.	8r	.	8r	.	8r	.	8ee-\L	rech-	8a/L	rech-	8c\L	rech-	8F\L	rech-
8r	.	8r	.	8r	.	8r	.	16ff\L	.	8g/J	.	8B-\J	.	8G\J	.
.	.	.	.	.	.	.	.	16ee-\JJ	.	.	.	.	.	.	.
8a/	die	8f/	die	8c\	die	8F\	die	16dd\LL	-te	8f/	-te	8c\	-te	8A\	-te
.	.	.	.	.	.	.	.	16cc\JJ	.	.	.	.	.	.	.
=158	=158	=158	=158	=158	=158	=158	=158	=158	=158	=158	=158	=158	=158	=158	=158
8dd\L	Wahr-	4f/	Wahr-	8B-/L	Wahr-	4B-\	Wahr-	4dd\	Weg,	4f/	Weg,	4B-\	Weg,	4B-\	Weg,
8cc\J	.	.	.	8A/J	.	.	.	.	.	.	.	.	.	.	.
8dd\	-heit	8f/	-heit	8B-\	-heit	8B-\	-heit	8r	.	8r	.	8r	.	8r	.
8g/L	und	8e/L	und	4c\	und	8B-\L	und	4r	.	4r	.	4r	.	4r	.
8a/J	.	8f#/J	.	.	.	16c\L	.	.	.	.	.	.	.	.	.
.	.	.	.	.	.	16B-\JJ	.	.	.	.	.	.	.	.	.
8b-\	das	8g/	das	8d\	das	16A\LL	das	8r	.	8r	.	8r	.	8r	.
.	.	.	.	.	.	16G\JJ	.	.	.	.	.	.	.	.	.
=159	=159	=159	=159	=159	=159	=159	=159	=159	=159	=159	=159	=159	=159	=159	=159
[4.cc\	Le-	[4.f#/	Le-	8c\L	Le-	8A\L	Le-	4r	.	4r	.	4r	.	4r	.
.	.	.	.	16e-\L	.	8G\	.	.	.	.	.	.	.	.	.
.	.	.	.	16d\	.	.	.	.	.	.	.	.	.	.	.
.	.	.	.	16c\	.	8A\J	.	8r	.	8r	.	8r	.	8r	.
.	.	.	.	16B-\JJ	.	.	.	.	.	.	.	.	.	.	.
8cc\L]	.	8f#/L]	.	8A/L	.	8D\L	.	8r	.	8r	.	8r	.	8r	.
16dd\L	.	8e/	.	8G/	.	8E\	.	8r	.	8r	.	8r	.	8r	.
16cc\	.	.	.	.	.	.	.	.	.	.	.	.	.	.	.
16b-\	.	8d/J	.	8A/J	.	8F#\J	.	8dd\	die	8f#/	die	8d\	die	8D\	die
16a\JJ	.	.	.	.	.	.	.	.	.	.	.	.	.	.	.
=160	=160	=160	=160	=160	=160	=160	=160	=160	=160	=160	=160	=160	=160	=160	=160
8b-\L	.	4d/	-ben,	4G/	-ben,	4G\	.	8b-/L	Wahr-	4d/	Wahr-	8d\L	Wahr-	4G\	Wahr-
8cc\	.	.	.	.	.	.	.	8a/J	.	.	.	8c\J	.	.	.
8dd\J	.	8b-\	die	8d\	der	8G\	-ben,	8b-\	-heit	8d/	-heit	8B-\	-heit	8G\	-heit
8ee-\L	.	8b-/L	Wahr-	[4.c\	rech-	8C/L	und	4ee-\	und	4g/	und	4c\	und	8G\L	und
8ff\	.	16cc/L	.	.	.	8D/J	.	.	.	.	.	.	.	16A-\L	.
.	.	16b-/	.	.	.	.	.	.	.	.	.	.	.	16G\JJ	.
8gg\J	.	16a-/	.	.	.	8E-\	das	8ee-\	das	8g/	das	8c\	das	16F\LL	das
.	.	16g/JJ	.	.	.	.	.	.	.	.	.	.	.	16E-\JJ	.
=161	=161	=161	=161	=161	=161	=161	=161	=161	=161	=161	=161	=161	=161	=161	=161
[4.aa-\	.	8f/L	.	8c\L]	.	[4.F\	Le-	8ee-\L	Le-	2.f/	Le-	8A-/L	Le-	8F\L	Le-
.	.	8g/	.	16d\L	.	.	.	16ff\L	.	.	.	8G/	.	8E-\	.
.	.	.	.	16c\	.	.	.	16ee-\	.	.	.	.	.	.	.
.	.	8a-/J	.	16B-\	.	.	.	16dd\	.	.	.	8F/J	.	8F\J	.
.	.	.	.	16A-\JJ	.	.	.	16cc\JJ	.	.	.	.	.	.	.
8aa-\L]	.	[4.b-\	.	4f\	.	16F\LL]	.	[4.dd\	.	.	.	8d\L	.	8BB-/L	.
.	.	.	.	.	.	16A-\	.	.	.	.	.	.	.	.	.
16bb-\L	.	.	.	.	.	16G\	.	.	.	.	.	8e-\	.	8C/	.
16aa-\	.	.	.	.	.	16F\	.	.	.	.	.	.	.	.	.
16gg\	.	.	.	8B-\	-te	16E-\	.	.	.	.	.	8f\J	.	8D/J	.
16ff\JJ	.	.	.	.	.	16D\JJ	.	.	.	.	.	.	.	.	.
=162	=162	=162	=162	=162	=162	=162	=162	=162	=162	=162	=162	=162	=162	=162	=162
[4.gg\	.	8b-/L]	.	4e-\	Weg,	8E-\L	.	8dd\L]	.	2.e-/	.	8B-/L	.	[4.E-\	.
.	.	16cc/L	.	.	.	8D\	.	16ee-\L	.	.	.	8G/J	.	.	.
.	.	16b-/	.	.	.	.	.	16dd\	.	.	.	.	.	.	.
.	.	16a/	.	8e-\	der	8E-\J	.	16cc\	.	.	.	8E-/	-ben,	.	.
.	.	16g/JJ	.	.	.	.	.	16b-\JJ	.	.	.	.	.	.	.
8gg\L]	.	[4.a/	.	4c\	rech-	8AA/L	.	[4.cc\	.	.	.	8r	.	16E-\LL]	.
.	.	.	.	.	.	.	.	.	.	.	.	.	.	16G\	.
16aa\L	.	.	.	.	.	8BB-/	.	.	.	.	.	8r	.	16F\	.
16gg\	.	.	.	.	.	.	.	.	.	.	.	.	.	16E-\	.
16ff\	.	.	.	8c\	-te	8C/J	.	.	.	.	.	8A/	das	16D\	.
16ee-\JJ	.	.	.	.	.	.	.	.	.	.	.	.	.	16C\JJ	.
=163	=163	=163	=163	=163	=163	=163	=163	=163	=163	=163	=163	=163	=163	=163	=163
[4.ff\	.	8a/L]	.	4A/	Weg,	[4.D\	.	8cc\L]	.	2.d/	.	8F/L	Le-	8D/L	.
.	.	16b-/L	.	.	.	.	.	16dd\L	.	.	.	8E-/	.	8C/	.
.	.	16a/	.	.	.	.	.	16cc\	.	.	.	.	.	.	.
.	.	16g/	.	8d\	die	.	.	16b-\	.	.	.	8D/J	.	8D/J	.
.	.	16f/JJ	.	.	.	.	.	16a\JJ	.	.	.	.	.	.	.
8ff\L]	.	[4.g/	.	4B-\	Wahr-	16D\LL]	.	[4.b-\	.	.	.	8B-\L	.	8GG/L	.
.	.	.	.	.	.	16F\	.	.	.	.	.	.	.	.	.
16gg\L	.	.	.	.	.	16E-\	.	.	.	.	.	8c\	.	8AA/	.
16ff\	.	.	.	.	.	16D\	.	.	.	.	.	.	.	.	.
16ee-\	.	.	.	8B-\	-heit	16C\	.	.	.	.	.	8d\J	.	8BB-/J	.
16dd\JJ	.	.	.	.	.	16BB-\JJ	.	.	.	.	.	.	.	.	.
=164	=164	=164	=164	=164	=164	=164	=164	=164	=164	=164	=164	=164	=164	=164	=164
[4.ee-\	.	8g/L]	.	4G/	und	[2.C/	.	8b-/L]	.	2.c/	.	8G/L	.	[2.C/	.
.	.	16a-/L	.	.	.	.	.	16cc/L	.	.	.	8E-/J	.	.	.
.	.	16g/	.	.	.	.	.	16b-/	.	.	.	.	.	.	.
.	.	16f/	.	8c\	das	.	.	16a-/	.	.	.	8C/	-ben,	.	.
.	.	16e-/JJ	.	.	.	.	.	16g/JJ	.	.	.	.	.	.	.
16ee-\LL]	.	16cc\LL	.	8e-\L	Le-	.	.	16a-/LL	.	.	.	8r	.	.	.
16ff\	.	16b-\	.	.	.	.	.	16g/	.	.	.	.	.	.	.
16ee-\	.	16cc\	.	8a-\J	.	.	.	16a-/	.	.	.	8r	.	.	.
16dd\	.	16dd\J	.	.	.	.	.	16b-/	.	.	.	.	.	.	.
16cc\	.	8ee-\J	.	8c\	-ben,	.	.	16a-/	.	.	.	8e-\	die	.	.
16b-\JJ	.	.	.	.	.	.	.	16g/JJ	.	.	.	.	.	.	.
=165	=165	=165	=165	=165	=165	=165	=165	=165	=165	=165	=165	=165	=165	=165	=165
8a/	.	8dd\	.	8f#\	du	16C\LL]	.	8f#/	.	8d/	.	8A\L	Wahr-	16C\LL]	.
.	.	.	.	.	.	16BB-\	.	.	.	.	.	.	.	16BB-\	.
8b-\	-ben,	8g/	-heit,	8d\	bist	16C\	.	8g/	-ben,	8G/	-ben,	8d\J	.	16C\	.
.	.	.	.	.	.	16E-\	.	.	.	.	.	.	.	16E-\	.
8cc\	die	8f#/	die	8A/	die	16D\	.	8a/	die	8d/	die	8f#\	-heit	16D\	.
.	.	.	.	.	.	16C\JJ	.	.	.	.	.	.	.	16C\JJ	.
4dd\	Wahr-	4g/	Wahr-	4B-\	Wahr-	16BB-\LL	.	8d/L	Wahr-	4d/	Wahr-	8G/L	und	16BB-\LL	.
.	.	.	.	.	.	16C\	.	.	.	.	.	.	.	16C\	.
.	.	.	.	.	.	16D\	.	8dd/J	.	.	.	8B-/J	.	16D\	.
.	.	.	.	.	.	16E\	.	.	.	.	.	.	.	16E\	.
8dd\	-heit	8a/	-heit	8A/	-heit	16F#\	.	8cc\	-heit	8d/	-heit	8d\	das	16F#\	.
.	.	.	.	.	.	16D\JJ	.	.	.	.	.	.	.	16D\JJ	.
=166	=166	=166	=166	=166	=166	=166	=166	=166	=166	=166	=166	=166	=166	=166	=166
8dd\L	und	4g/	und	4B-\	und	8G\	.	16b-\LL	und	4d/	und	8G/	Le-	8G\	.
.	.	.	.	.	.	.	.	16cc\J	.	.	.	.	.	.	.
8g\J	.	.	.	.	.	8BB-/	-ben,	8dd\J	.	.	.	8G/	-ben,	8BB-/	-ben,
8ee-\	das	8a/	das	8A/	das	8C/	das	8g/	das	8e-/	das	8G/	das	8C/	das
8b-/L	Le-	8g/L	Le-	8d\L	Le-	8D/L	Le-	4g/	Le-	8d/L	Le-	8B-/L	Le-	8D/L	Le-
8cc/	.	8e-/	.	8A\	.	8C/	.	.	.	8e-/	.	8A/	.	8C/	.
8a/J	.	8d/J	.	8c\J	.	8D/J	.	8f#/	.	8A/J	.	8D/J	.	8D/J	.
=167	=167	=167	=167	=167	=167	=167	=167	=167	=167	=167	=167	=167	=167	=167	=167
2.g/	-ben.	2.d/	-ben.	2.B\	-ben.	2.GG/	-ben.	2.g/	-ben.	2.B/	-ben.	2.D/	-ben.	2.GG/	-ben.
==||	==||	==||	==||	==||	==||	==||	==||	==||	==||	==||	==||	==||	==||	==||	==||
*-	*-	*-	*-	*-	*-	*-	*-	*-	*-	*-	*-	*-	*-	*-	*-
!!!RWG: Appoggiaturas of spine 'Soprano' need manual editing in measures: 7
!!!RWG: Appoggiaturas of spine 'Alto' need manual editing in measures: 55
!!!RWG: Appoggiaturas of spine 'Soprano' need manual editing in measures: 10
!!!RWG: Key is interpreted using the Humdrum key tool.
!!!AFT: stage2
!!!END: 1990/03/14/
!!format changes:
!!content changes:
!!public access: complete
!!!KEY: 1736676281
!!!EMD: Converted from MuseData to Humdrum Dec 19, 2000, by Andreas Kornstaedt using muse2kern.
